ESOGU-SRLAB/Model-Based-Digital-Twin-Functional-Mockup-Unit/Cobot_Ur10e/ur10e_Universal_Cobot_v4_out.csv
"time","x_des","y_des","z_des","roll_des","pitch_des","yaw_des","kp","kd","q1","q2","q3","q4","q5","q6","dq1","dq2","dq3","dq4","dq5","dq6","ee_x","ee_y","ee_z","ee_roll","ee_pitch","ee_yaw","tau1","tau2","tau3","tau4","tau5","tau6"
0,0.5,0,0.5,0,0,0,10,2,0,0,0,0,0,0,0,0,0,0,0,0,0,0,0,0,0,0,0,0,0,0,0,0
0.01,0.5,0,0.5,0,0,0,10,2,0.00491225975547434,-0.0001295897241223119,0.005620012292674426,-0.1515485755034985,0.04715114180764322,0.126838943203934,0.491225975547434,-0.01295897241223119,0.5620012292674426,-2,2,2,1.59955930872497,-0.1717880829493325,-0.0313280254612688,-0.04186832827053545,0.01905872593451132,1.563935220639445,2.45612987773717,-0.9978408757418017,17.42203810729072,-30.3097151006997,9.430228361528643,12.6838943203934
0.02,0.5,0,0.5,0,0,0,10,2,0.01166869494242455,-0.0003771272040975478,0.01628574989872163,-0.290630792037996,0.09430027659096794,0.2189227953928296,0.6756435186950214,-0.02475374799752359,1.066573760604721,-2,2,2,1.593966101243188,-0.1665366707225442,-0.05512888178435451,-0.0805122272170484,0.0546210575829553,1.545211546115065,1.45759824466174,-1.40985686131809,15.96374063837025,-24.32745483087189,5.721378459344413,7.384704033485642
0.03,0.5,0,0.5,0,0,0,10,2,0.0192064720834657,-0.0007567444750159567,0.03150375006392483,-0.4192467255217257,0.1388574159821072,0.300134132954539,0.7537777141041146,-0.0379617270918409,1.52180001652032,-2,2,2,1.585787115989354,-0.1598558543221497,-0.07201643619409276,-0.1138879309301295,0.08486943426401261,1.518152250477467,0.9750219302158123,-1.521842761432985,14.47574065937813,-22.51352199121871,5.294323500147474,6.352160655352996
0.04,0.5,0,0.5,0,0,0,10,2,0.02697704894758183,0.0007926076719858003,0.04011365312413225,-0.4522990071161455,0.1811702936899704,0.3713207045353465,0.7770576864116123,0.1549352147001757,0.8609903060207413,-2,2,2,1.584088488033526,-0.1524767069517891,-0.06991123792515205,-0.1418216468021942,0.03396914382096117,1.49864029893205,0.7552347008260818,14.34337589593729,-20.06184065860106,-3.649066439674183,4.931423501760012,5.397026240013126
0.05,0.5,0,0.5,0,0,0,10,2,0.03470675722491669,0.002012330678525446,0.05331837090625823,-0.5700155424570496,0.2216809587191433,0.4335021275805162,0.772970827733486,0.1219723006539646,1.320471778212598,-2,2,2,1.573353676730761,-0.1452682614737302,-0.08212534931368562,-0.1666764699100832,0.07021951996476318,1.462081713290104,0.6745588432900651,-2.027996602025505,14.70085665205601,-20.64364187684496,4.652112659288509,4.537053007593796
0.06,0.5,0,0.5,0,0,0,10,2,0.04223234345781229,0.002895728369029888,0.0707882423844578,-0.6812365760979524,0.2603090683042166,0.4877366388086659,0.7525586232895599,0.08833976905044416,1.746987147819957,-2,2,2,1.561501562318768,-0.1383446346473005,-0.08885956918453282,-0.1883788241344403,0.1027205814701974,1.42254788692044,0.6487833774272083,-2.063941018800054,13.73052354264103,-19.55592966848376,4.352692536233238,3.776874525819339
0.07000000000000001,0.5,0,0.5,0,0,0,10,2,0.04947002785054254,0.003441168520126294,0.09219594977059309,-0.7865654766103194,0.2972199511252608,0.5350077540280207,0.7237684392730254,0.05454401510964068,2,-2,2,2,1.548993951033356,-0.1318469825756499,-0.09070358323360546,-0.207486758398286,0.131632959818298,1.381409680235919,0.6612554811299958,-2.065199005178132,12.78406921205342,-18.56313646385573,4.08210481378663,3.109841610462309
0.08,0.5,0,0.5,0,0,0,10,2,0.0563811667650053,0.00365167670765941,0.1158978285048544,-0.8865039765274961,0.3325469091310386,0.5761874781997798,0.6911138914462758,0.0210508187533116,2,-2,2,2,1.536015394044105,-0.1258414141987477,-0.08921442591174422,-0.2245128242469635,0.1583932257607813,1.339323493891077,0.6941997003103502,-2.034918819149846,12.13609520033398,-17.64611010812403,3.834243196304866,2.525571188310684
0.09,0.5,0,0.5,0,0,0,10,2,0.06295299244737197,0.003533730421271783,0.1395140413883315,-0.9814999672440319,0.3663981895654125,0.6120363140446582,0.6571825682366668,-0.01179462863876275,2,-2,2,2,1.522584181899917,-0.1203551010313488,-0.08639100874032286,-0.2399820623823373,0.1851437485615633,1.296329531332216,0.7377063149126863,-1.982347023005008,11.96277771495551,-16.79550075188556,3.604348871187838,2.013588256768667
0.1,0.5,0,0.5,0,0,0,10,2,0.06918759284144076,0.003225558483145482,0.1630440224608345,-1.071971379129551,0.3988636249019228,0.6432107981880968,0.6234600394068786,-0.03081719381263004,2,-2,2,2,1.508895237810462,-0.1153771703555728,-0.08224408661170235,-0.2542806796516274,0.2116398089140073,1.252901655971835,0.7861733146896617,-1.919495152417527,11.78711958068227,-16.00690933035694,3.388954467114274,1.564074198168779
0.11,0.5,0,0.5,0,0,0,10,2,0.07509504099764683,0.002733579077223931,0.1864866203729494,-1.158285983464477,0.430022404236201,0.6702810454013591,0.590744815620607,-0.04919794059215511,2,-2,2,2,1.495091064831905,-0.1108827363745782,-0.07695123361040737,-0.267734923210536,0.2377786655296628,1.209361460739556,0.8361812891649234,-1.874020648381804,11.60725580975523,-15.2719880118738,3.186120746255211,1.168873587079721
0.12,0.5,0,0.5,0,0,0,10,2,0.0806894696948913,0.00206554559361165,0.2098406493008222,-1.240770859649314,0.4599454252437506,0.6937412116846051,0.5594428697244465,-0.06680334836122817,2,-2,2,2,1.481280965381559,-0.106839951145952,-0.07067428820966831,-0.2806145166276989,0.2634699122596172,1.165939853828216,0.8858414166227662,-1.820618344138909,11.42302829801145,-14.58426846163492,2.994365266482808,0.8207996782400722
0.13,0.5,0,0.5,0,0,0,10,2,0.08598680734801417,0.00123036673349625,0.2331049990829878,-1.319718040420831,0.4886971291609665,0.714019764339857,0.5297337653122872,-0.08351788601153998,2,-2,2,2,1.467547381282141,-0.1032144845951591,-0.06355900898024607,-0.2931402712164637,0.2886333320657451,1.122799114660337,0.9341250118807554,-1.76057417361176,11.23462159730491,-13.93836098470001,2.812561720197856,0.5136258058179779
0.14,0.5,0,0.5,0,0,0,10,2,0.09100348905948913,0.000237937307837477,0.2562786814775614,-1.395388966015315,0.5163368322572204,0.7314886368258681,0.5016681711474954,-0.0992429425658773,2,-2,2,1.746887248601104,1.453951214214723,-0.09997208548755744,-0.05573541760272822,-0.3054910452243881,0.3131973783279906,1.080050261115953,0.9805040090833359,-1.695076935227996,11.04236534419293,-13.32969086090801,2.63984126316461,0.2419843251414004
0.15,0.5,0,0.5,0,0,0,10,2,0.09575574378449914,-0.0009010190160076003,0.279360849196102,-1.468018224710703,0.5429196922993983,0.749002321360685,0.4752254725010006,-0.1138956323845077,2,-2,2,1.751368453481695,1.440536206938772,-0.09707998078755728,-0.04731858831665857,-0.3164480689342685,0.3349179219217847,1.038215614853337,1.024742073549403,-1.625210797334986,10.8466500656261,-12.75434060132553,2.475520826595291,0.5074824664274362
0.16,0.5,0,0.5,0,0,0,10,2,0.1002594010198977,-0.00217514318980599,0.3023514799693117,-1.537795257554094,0.5685049622163967,0.7640532758775869,0.4503657235398592,-0.1274124173798389,2,-2,2,1.505095451690188,1.427336881098858,-0.09450762604599772,-0.03840735495756913,-0.3274239630081258,0.3562224568947554,0.9969742068614476,1.066861116546423,-1.552328217473179,10.64998886214437,-12.20463537682486,2.32056138366473,0.2645292679860534
0.17,0.5,0,0.5,0,0,0,10,2,0.1045293762964699,-0.003572501077142891,0.3252498685041794,-1.604914205541199,0.5931384147986329,0.7794233084547566,0.4269975276572144,-0.1397357887336901,2,-2,2,1.537003257716978,1.414371990297461,-0.0922265572557609,-0.02909131563100029,-0.3369687421020918,0.3749839718940533,0.9569186743532586,1.106719505951764,-1.476747997975437,10.4502244315867,-11.68276790208532,2.172415022021937,0.5493135441072474
0.18,0.5,0,0.5,0,0,0,10,2,0.1085798086734689,-0.005080740403182984,0.3480560686779698,-1.669530033407298,0.616869156249288,0.7923660184814175,0.4050432376999059,-0.1508239326040093,2,-2,2,1.294271002666094,1.401656070089101,-0.09021090575676918,-0.01944655828878283,-0.3468318743468213,0.393659648764366,0.9175022522487529,1.144494940480048,-1.399525822760498,10.24966911553356,-11.18206668078079,2.031872892930634,0.2813193514299361
0.19,0.5,0,0.5,0,0,0,10,2,0.1124238392324427,-0.006687150870686062,0.3707695028459463,-1.731806425818973,0.6397356541951562,0.8058829299254358,0.3844030558973713,-0.1606410467503078,2,-2,2,1.351691144401822,1.389191919049641,-0.08843720575923884,-0.009541433193807347,-0.3551895524851146,0.4100167085259932,0.879467959540508,1.180179925829138,-1.320966386289129,10.04632835894939,-10.70534535425879,1.896935711537083,0.5869904329007603
0.2,0.5,0,0.5,0,0,0,10,2,0.1160738283176784,-0.008378790757375127,0.3933903440458316,-1.791870423600651,0.6617791750971046,0.8169794942491709,0.3649989085235745,-0.1691639886689065,2,-2,2,1.109656432373514,1.376981763536274,-0.08688423432286983,0.0005667045940886684,-0.3641591764313152,0.4265315694434973,0.8420340009366392,1.213979050570387,-1.24188168953823,9.842491511155682,-10.24625391928506,1.768272777167603,0.2932222676596825
0.21,0.5,0,0.5,0,0,0,10,2,0.1195412589056042,-0.01014254900841398,0.4159181729106049,-1.849861130288673,0.6830331565759011,0.8288906526545571,0.3467430587925847,-0.1763758251038848,2,-2,2,1.191115840538609,1.36501870265481,-0.08553308615484492,0.01082678879874786,-0.3715159185080476,0.4408949853388212,0.8061351612910927,1.245934238628783,-1.162584068128162,9.636288518550185,-9.80810362644695,1.644430402482902,0.6213254211764907
0.22,0.5,0,0.5,0,0,0,10,2,0.122836923462015,-0.01196524045693857,0.4383532931416017,-1.905882911541099,0.7035325558757586,0.8383636953260979,0.3295664556410751,-0.1822691448524596,2,-2,2,0.9473042671540838,1.353297635601087,-0.08436651937341998,0.02119635190288252,-0.3797726775212432,0.4555912192304072,0.7707411383391676,1.276222736879971,-1.083638763627008,9.429926530086174,-9.384758119410694,1.525810331539198,0.3009415330969798
0.23,0.5,0,0.5,0,0,0,10,2,0.1259708977418742,-0.01383367267177251,0.4606954508488262,-1.960055010371105,0.7233073840619537,0.8488807060951076,0.3133974279859176,-0.1868432214833934,2,-2,1.977482818619518,1.051701076900973,1.341806008468292,-0.08336945301376636,0.03163801096513721,-0.3862785437584499,0.4682618511682582,0.7370130210224988,1.304910189020684,-1.00539158977703,9.221646646742776,-8.979940793961902,1.411521385173572,0.6529916484516594
0.24,0.5,0,0.5,0,0,0,10,2,0.1289526596277592,-0.01573470952723629,0.4829450752801943,-2.012463312382073,0.7423872997148802,0.8569200502982903,0.2981761885885059,-0.1901036855463787,2,-2,1.907991565292646,0.8039344203182801,1.330534586392645,-0.08252787012827169,0.04212082267361797,-0.3939671308446524,0.4813868225097526,0.7036562766973955,1.332129500922285,-0.9281630239325083,9.013535601799378,-8.587645651206291,1.346615826473898,0.3050461193039564
0.25,0.5,0,0.5,0,0,0,10,2,0.1317911196889743,-0.01765534568442371,0.5051020728881426,-2.063210988599734,0.7608000311103161,0.8662248597135916,0.2838460061215075,-0.1920636157187423,2,-2,1.841273139543601,0.9304809415301358,1.319467756602487,-0.08182979538549702,0.0526180221571384,-0.3997385886996419,0.4925833788106052,0.6720875424619022,1.357965040745602,-0.8523582846117623,8.803945504997664,-8.211948812899202,1.379707077475278,0.6825497941993754
0.26,0.5,0,0.5,0,0,0,10,2,0.1344946613195776,-0.01958273858449947,0.5271669850925311,-2.112368791581777,0.7785706034215518,0.8729930244498268,0.270354163060329,-0.1927392900075757,2,-2,1.77705723112357,0.6768164736235167,1.308594177795756,-0.08126376399105345,0.06310738414543288,-0.4069706639676087,0.5043145698239128,0.6407314405041191,1.382501793713702,-0.7780571152347817,8.59481702665105,-7.846908119098662,1.410841360730084,0.3059947061341717
0.27,0.5,0,0.5,0,0,0,10,2,0.1370712275539952,-0.02150429328008719,0.5491398675699293,-2.160026861361759,0.7957252911593802,0.8812429539227017,0.2576566234417625,-0.1921554695587715,2,-2,1.715468773782833,0.8249929472874807,1.297896830351931,-0.08082029540053776,0.07357024338055732,-0.4120936703107018,0.5141955789280032,0.6112851492548108,1.405844206083525,-0.7057482105097761,8.38462014061594,-7.496911916645489,1.440883766115457,0.7104699059794339
0.28,0.5,0,0.5,0,0,0,10,2,0.1395282814278808,-0.02340766306807883,0.5710213570967826,-2.206243486475274,0.8122849248558514,0.8868796776203994,0.2457053873885614,-0.1903369787991647,2,-2,1.655963369647113,0.5636723697697738,1.287363542980447,-0.08048992617458553,0.08399081415965431,-0.4189513998884649,0.5246600100923305,0.5818758826743836,1.428030247848826,-0.6352751259049609,8.175131651914858,-7.156027338860778,1.468569770794059,0.3041551849073363
0.29,0.5,0,0.5,0,0,0,10,2,0.1418729516379354,-0.02528084710905106,0.5928116451227029,-2.251098221022776,0.828274938235259,0.8942115742521876,0.2344670210054565,-0.1873184040972225,2,-2,1.599001337940764,0.7331896631788141,1.276976934571598,-0.08026517738317028,0.09435650509120171,-0.4234850904286476,0.5333407238939317,0.5545027924583182,1.449187012322492,-0.567231417061027,7.964949664299242,-6.828928514246794,1.495973309868888,0.7371491627703319
0.3,0.5,0,0.5,0,0,0,10,2,0.1441119152158481,-0.02711215996045227,0.6145114462690654,-2.294639019312852,0.843712259918097,0.8988375319398829,0.2238963577912664,-0.183131285140121,2,-2,1.543732168283797,0.4625957687695372,1.266724799646517,-0.08013815069610696,0.1046561514466175,-0.4300251719051163,0.5426297372460278,0.5269798388884271,1.469307623359967,-0.5012288330970895,7.755674368725927,-6.509646076231359,1.520541342327407,0.2998202611670968
0.31,0.5,0,0.5,0,0,0,10,2,0.1462516043422889,-0.02889034410383008,0.6361210740172818,-2.336936821189027,0.8586219466765429,0.9053711871550707,0.2139689126440797,-0.1778184143377809,2,-2,1.490968675844599,0.653365521518782,1.256590052163856,-0.08010297808345622,0.1148816287035895,-0.4340059341050648,0.5501948749423852,0.5016264685918773,1.488543964628364,-0.4379842482954475,7.546043514143491,-6.203124028498983,1.545655761672474,0.7629263515493108
0.32,0.5,0,0.5,0,0,0,10,2,0.1482980143289123,-0.0306045086466509,0.6576413041336896,-2.378030948980937,0.8730172261124663,0.9090910376645271,0.2046409986623459,-0.1714164542820823,2,-2,1.439527943592344,0.3719850509456404,1.246560942696684,-0.08015298494761049,0.1250249590566948,-0.4402638660175626,0.5583751893975846,0.4759287312083021,1.506846679777096,-0.3768815949555149,7.337471336295977,-5.9033172485851,1.567388994192632,0.29321991532327
0.33,0.5,0,0.5,0,0,0,10,2,0.1502569727403355,-0.03224425855930132,0.6790725591840827,-2.417985324529814,0.8869231379143212,0.9149319982671008,0.1958958411423194,-0.1639749912650419,2,-2,1.390591180185489,0.5840960602573649,1.236621088617709,-0.08028360588856437,0.1350812231581503,-0.443709548316056,0.564888382991488,0.4525418792437994,1.524393790314755,-0.3187766564107153,7.128846688604469,-5.615431626304085,1.590516020677872,0.7880936888917573
0.34,0.5,0,0.5,0,0,0,10,2,0.1521338758511243,-0.03379960281306314,0.7004156609546858,-2.456832001847005,0.9003493539828652,0.9178368736661333,0.1876903110788756,-0.1555344253761818,2,-2,1.342621606854396,0.2904875399032535,1.226759494091595,-0.08048912343009081,0.1450445107596695,-0.4497039257508111,0.5720102316476409,0.4286109098224056,1.541095723497555,-0.2628291371584175,6.921390930618017,-5.333311988909067,1.609660695279985,0.2845313580887416
0.35,0.5,0,0.5,0,0,0,10,2,0.1539340200601255,-0.03526110183091842,0.721671129451002,-2.49462918323625,0.9133211832268999,0.9230787476702521,0.1800144209001251,-0.1461499017855285,2,-2,1.297182924403472,0.5241874004118839,1.216960730502379,-0.08076603081451747,0.1549121263127629,-0.4526179824114224,0.5775209122283569,0.4071397944885499,1.557157244203048,-0.2100466566870265,6.714154640395268,-5.062424059959081,1.631062875929183,0.8129065060200127
0.36,0.5,0,0.5,0,0,0,10,2,0.1556622699600847,-0.03661974533382315,0.7428398192486624,-2.531402749851996,0.9258448556054036,0.9252482776878223,0.1728249899959191,-0.1358643502904728,2,-2,1.252367237850368,0.21695300175701,1.207214733026688,-0.08110935880873474,0.1646793625353506,-0.4583546536841708,0.5836239348767002,0.3849210649804017,1.572450677817779,-0.1593679693703806,6.508161217931953,-4.79647215168449,1.647835709735818,0.273886999551586
0.37,0.5,0,0.5,0,0,0,10,2,0.1573234510998142,-0.03786711923889128,0.7639223376221268,-2.567206246375339,0.9379461823859299,0.9299746197144262,0.1661181139729429,-0.1247373905068127,2,-2,1.210132678052624,0.4726342026603939,1.19750717798904,-0.08151646488603852,0.1743449922308911,-0.4607300780619795,0.5881722626381111,0.3653178991725394,1.587207561345134,-0.1119630513811046,6.302632289389603,-4.541184201202654,1.667742953692493,0.8375912203965192
0.38,0.5,0,0.5,0,0,0,10,2,0.1589219527322217,-0.03899525350018075,0.7849195606634948,-2.602060263835011,0.949628049417591,0.9314785684800276,0.159850163240753,-0.1128134261289471,2,-2,1.168186703166123,0.1503948765601462,1.187829035424966,-0.08198296344482195,0.1839048518881491,-0.4662060437895752,0.593289692848999,0.3447608014579878,1.601264100336839,-0.06655278875246146,6.098389716170729,-4.290096541865989,1.682336608689972,0.2613808541608158
0.39,0.5,0,0.5,0,0,0,10,2,0.1604621803259995,-0.03999680944718207,0.8058321741967593,-2.636014562846317,0.9609169639127549,0.9357644155601343,0.1540227593777812,-0.1001555947001321,2,-2,1.128891449516392,0.4285847080106672,1.178167175014648,-0.08250691998404126,0.1933586089289076,-0.4680289850876238,0.5969100096113086,0.3269803777854899,1.61487822442997,-0.02447789806056477,5.894833935495612,-4.04920499165414,1.700951143394824,0.8623519305894696
0.4,0.5,0,0.5,0,0,0,10,2,0.1619480959715234,-0.04086489792930025,0.8266610664305932,-2.669085157846935,0.9718125594007463,0.9366639957742255,0.1485915645523883,-0.08680884821181746,2,-2,1.089559548799135,0.08995802140912451,1.168513661608575,-0.08308440184919436,0.2027021499523853,-0.4732359539721924,0.601071580329782,0.3080374393993792,1.627851887474954,0.01575561041398868,5.692583004598434,-3.811852808269211,1.713538339976385,0.2470737235431659
0.41,0.5,0,0.5,0,0,0,10,2,0.1633837286372071,-0.04159328787630613,0.8474069943430694,-2.701318748491532,0.9823422020867489,0.9405771134637163,0.143563266568373,-0.07283899470058837,2,-2,1.052964268600263,0.391311768949079,1.158856607721622,-0.08371405594774417,0.211935609579916,-0.4744889425826978,0.6037947594995303,0.292036141284298,1.640468768177974,0.05262977044816212,5.491222241778191,-3.584311794653114,1.73103855666906,0.8873759104319422
0.42,0.5,0,0.5,0,0,0,10,2,0.1647726551051593,-0.04217619508485904,0.8680708505715271,-2.732727351031562,0.992502364878276,0.9409260335115528,0.1388926467952221,-0.05829072085529036,2,-2,1.016016279152705,0.03489200478364923,1.149189207777835,-0.08439229796770155,0.221054564540262,-0.4794164809478819,0.6070286574852171,0.2746618138302002,1.652498329334123,0.08785046218747458,5.291164843908129,-3.359708892999715,1.741775220780919,0.2309974231415194
0.43,0.5,0,0.5,0,0,0,10,2,0.1661185657569657,-0.04260851259919116,0.8886534569953781,-2.763355206623231,1.00232141134675,0.944527923663211,0.1345910651806412,-0.04323175143321274,2,-2,0.9819046468473568,0.3601890151658259,1.139500842388715,-0.08511825271458281,0.2300593073832164,-0.4800812094307902,0.6088836433509828,0.2603963560818523,1.664249202542746,0.1197175879567538,5.092185324707314,-3.144601814080112,1.758318719623171,0.9128382253970847
0.44,0.5,0,0.5,0,0,0,10,2,0.1674246887760032,-0.04288557050994177,0.9091557045066302,-2.793210803165274,1.011792748668736,0.9443732155344762,0.1306123019037483,-0.02770579107506084,2,-2,0.9471337321986674,-0.01547081287348645,1.129785856594967,-0.08588859976530594,0.2389448532785563,-0.4847194389819502,0.611217769128832,0.2445456398218604,1.675460010111435,0.1501458882785719,4.89449212171791,-2.931879368003733,1.767346433106068,0.2131582492284748
0.45,0.5,0,0.5,0,0,0,10,2,0.1686944091964319,-0.04300338859602052,0.9295784745774641,-2.822336428661599,1.020945855188271,0.9497199301867646,0.1269720420428677,-0.01178180860787455,2,-2,0.9153106519535033,0.5346714652288438,1.120034909032258,-0.08670285654652894,0.2477114391684242,-0.4824014015917524,0.6117714088329566,0.2333377448427111,1.686463476107142,0.1772496500708361,4.698051500884768,-2.728396503092893,1.783072478562302,0.938905641900608
0.46,0.5,0,0.5,0,0,0,10,2,0.1699304976118533,-0.04295833343861018,0.9499226366598217,-2.850727815148375,1.02976038557133,0.9469778252681997,0.1236088415421453,0.0045055157410346,2,-2,0.8814530383059282,-0.2742104918564914,1.1102445724053,-0.08755721319922687,0.2563517839763583,-0.4892642130928694,0.6137207059401624,0.2175299884073775,1.696898249057348,0.2037199370855693,4.502822406531909,-2.52486122282395,1.788363145130939,-0.2182344882362777
0.47,0.5,0,0.5,0,0,0,10,2,0.1711362742949912,-0.0428774928526792,0.9701891578810976,-2.878445748416482,1.038289647116102,0.9542533082102014,0.1205776683137862,0.008084058593097883,2,-2,0.8529261544771573,0.727548294200163,1.100438417153412,-0.08844718990294001,0.2647538742958667,-0.4838163833982778,0.6131709275366997,0.2093500040918424,1.707366281979132,0.2257200716711025,4.309104552401541,-2.33438387076414,1.807906987003605,1.391441725463409
0.48,0.5,0,0.5,0,0,0,10,2,0.172313974439458,-0.04275459144031486,0.9903789746466637,-2.905463442854385,1.046486809488844,0.9488264961843934,0.117770014446683,0.01229014123643467,2,-2,0.8197162372742108,-0.542681202580801,1.090618399112698,-0.08936711579361942,0.2729133690908927,-0.4932069979413013,0.6148900290505872,0.1932247732060653,1.717073985797389,0.2750746870610366,4.116800555720088,-2.139412947434306,1.807012696934789,-0.6779955169101877
0.49,0.5,0,0.5,0,0,0,10,2,0.1734667646652217,-0.04258419760686448,1.010493325685765,-2.931861503661491,1.05443245292691,0.9582150614751951,0.1152790225763666,0.0170393833450373,2,-2,0.7945643438065756,0.9388565290801638,1.080775193207447,-0.09031995932920107,0.2808444613904869,-0.4844896368175066,0.6134183132838957,0.1880344588717388,1.727045654162539,0.3184700344078802,3.926846080858146,-1.96155403707527,1.831155946814209,1.871871341883516
0.5,0.5,0,0.5,0,0,0,10,2,0.1745963371928514,-0.04236066532008105,1.030532987908771,-2.957589702106047,1.062050058001882,0.9499926381692981,0.1129572527629745,0.0223532286783428,2,-2,0.7617605074972378,-0.8222423305896918,1.070913285388375,-0.09129864597322807,0.288538058778654,-0.496598988594583,0.6148555922785333,0.171436403537449,1.73610103301185,0.3641240545844756,3.737809233829227,-1.774546222791921,1.823525129213918,-1.167486697932159
0.51,0.5,0,0.5,0,0,0,10,2,0.1757057949801545,-0.04207939910016203,1.050499376189914,-2.982748618812994,1.069449770211194,0.961682727698161,0.1109457787303042,0.02812662199190258,1.996638828114282,-2,0.7399712209312131,1.169008952886281,1.061022177177735,-0.09230816887874245,0.2960121760332691,-0.4844192113724503,0.6125291254597475,0.1692879072582282,1.745694833943741,0.4023685589502594,3.551667069270982,-1.60871243671583,1.852810391200685,2.381994475187553
0.52,0.5,0,0.5,0,0,0,10,2,0.176796334891789,-0.04173538550609732,1.07036160844856,-3.007264261950875,1.076522900417181,0.95054091407848,0.1090539911634548,0.03440135940647104,1.986223225864595,-2,0.7073130205987035,-1.114181361968105,1.051118911407056,-0.09333810647636641,0.3032454852152032,-0.499452546824706,0.6136676908160079,0.1520478223390401,1.754190815869877,0.4445699058247926,3.372496615310916,-1.428988859300228,1.838026921597938,-1.688378207811252
0.53,0.5,0,0.5,0,0,0,10,2,0.1778710304524835,-0.04132488843204907,1.090055443963073,-3.031258124542367,1.083411742622452,0.9647262109198445,0.1074695560694432,0.04104970740482458,1.969383551451332,-2,0.6888842205270673,1.418529684136444,1.041214324963792,-0.09439141623121393,0.3102468967248657,-0.4836754698317368,0.6106463148138312,0.1528883521609287,1.763488947264911,0.4777384704464318,3.211318176396416,-1.274670963930483,1.873045974902594,2.923646576951003
0.54,0.5,0,0.5,0,0,0,10,2,0.1789305261494371,-0.04084356112456965,1.109521421396096,-3.0546322751119,1.089973539022059,0.9505268686233692,0.1059495696953689,0.04813273074794223,1.946597743302255,-2,0.6561796399607064,-1.419934229647524,1.031339466801689,-0.09545391156271671,0.3169874736008668,-0.5019284978692227,0.6116274298505672,0.1346945517680009,1.771458316477718,0.5164595470623707,3.063296705901458,-1.101669376849105,1.850801513775278,-2.242603547250099
0.55,0.5,0,0.5,0,0,0,10,2,0.1799777796935301,-0.04028859562279395,1.128706359181115,-3.077530169222466,1.096385308820346,0.9674062038920087,0.1047253544092935,0.05549655017757051,1.918493778501966,-2,0.6411769798286806,1.687933526863948,1.021503453521116,-0.09653064174385359,0.3234878146750848,-0.4824658192057358,0.6081534180049925,0.1383829827356815,1.780474695030012,0.544238093994528,2.933000095569104,-0.9585001949333574,1.892137294734154,3.498798361952812
0.5600000000000001,0.5,0,0.5,0,0,0,10,2,0.1810127970389732,-0.03965636383474391,1.147561192495961,-3.099829270308236,1.102468137451476,0.9499957643218561,0.1035017345443087,0.06322317880500487,1.88548333148454,-2,0.6082828631130421,-1.74104395701527,1.011738125995944,-0.09760600088756083,0.3297199152595789,-0.5042461235069293,0.6091183335400288,0.1189196734368335,1.787926682167814,0.5792737972435695,2.813667226496484,-0.7917050886942558,1.862079071046147,-2.832197856561586
0.5700000000000001,0.5,0,0.5,0,0,0,10,2,0.1820383949013308,-0.03894503599062162,1.166043083394644,-3.121695716554042,1.108435911465876,0.9697745589821444,0.1025597862357687,0.07113278441222803,1.848189089868294,-2,0.5967774014399378,1.977879466028827,1.002049964362695,-0.09868735734968215,0.3357149959231311,-0.4809825074059511,0.6053992099476425,0.1253504950151684,1.796695620698994,0.6014510419160696,2.711805531597429,-0.6593009866427426,1.91022172131853,4.109667711850715
0.58,0.5,0,0.5,0,0,0,10,2,0.1830539223690663,-0.03815172494627124,1.18411254296207,-3.14298150328709,1.114071267158987,0.948984228291561,0.1015527467735481,0.07933110443503844,1.80694595674261,-2,0.5635355693111141,-2,0.9924706754450663,-0.09975779952407612,0.3414443696302701,-0.5065956229326311,0.6064575989166053,0.1043228345292982,1.803662383379015,0.6327821718656591,2.618483004626153,-0.4981443220960671,1.871950515473456,-3.45932351108058
0.59,0.5,0,0.5,0,0,0,10,2,0.1840620784058185,-0.03727560218317175,1.201736253259129,-3.163876318258763,1.119627229329048,0.9710857575917113,0.1008156036752157,0.08761227630994901,1.762371029705912,-2,0.5555962170060605,2,0.9830034427724647,-0.1008271592983986,0.3469488883632535,-0.4803383218121794,0.6027609302629768,0.1128897885904211,1.812231124682382,0.6493110046607771,2.542453531377564,-0.3761018259929019,1.927410440221716,4.600541979147495
0.6,0.5,0,0.5,0,0,0,10,2,0.185061622434509,-0.03631454916954031,1.218883428267563,-3.184209103319143,1.124850218068536,0.9496719623075284,0.09995440286904898,0.09610530136314338,1.714717500843392,-2,0.5222988739488311,-2,0.9736789313262005,-0.1018774862347729,0.3521982965760796,-0.5065389665443136,0.6037055632146754,0.09202916060180905,1.81877635069225,0.6768327497681532,2.472460821328889,-0.2206542336385011,1.881426828062648,-3.543343596060387
0.61,0.5,0,0.5,0,0,0,10,2,0.1860549576449128,-0.03526862149709662,1.235529256151531,-3.20417838108231,1.130012350667063,0.9714142031125674,0.09933352104038154,0.1045927672443695,1.664582788396763,-1.996927776316772,0.5162132598526706,2,0.9644978118754859,-0.1029200125647988,0.3572390191999558,-0.4806155187811554,0.6004406072312384,0.1007392308203426,1.827080922342585,0.6887007561992613,2.419212158351535,-0.1060879768625025,1.940249837913363,4.564854708438324
0.62,0.5,0,0.5,0,0,0,10,2,0.1870405527603239,-0.03413656137937448,1.251650845723373,-3.223613627457544,1.134856934522057,0.9496686755623547,0.09855951154111581,0.113206011772214,1.612158957184304,-1.943524637523347,0.4844583854994317,-2,0.9554874865386669,-0.1039376127069238,0.3620428779707404,-0.507130715785073,0.6013348583271737,0.08008781950972774,1.833372822941553,0.7117681794929649,2.370192426238515,0.03565498018455271,1.893212635001151,-3.576405009512545
0.63,0.5,0,0.5,0,0,0,10,2,0.1880205048977912,-0.03291927007834565,1.267230946680272,-3.242709383031781,1.139656802633044,0.9711030729706571,0.0979952137467274,0.1217291301028829,1.558010095689896,-1.909575557423758,0.4799868110987269,2,0.9466468905236846,-0.1049418267846824,0.3666581662400948,-0.4815457511204364,0.5985692304992581,0.08885148179074236,1.841422623804962,0.7193135359701556,2.33699240114808,0.03668017467598039,1.951773377515637,4.534069214788746
0.64,0.5,0,0.5,0,0,0,10,2,0.1889930206028042,-0.0316163136554649,1.282253636079875,-3.261296586216077,1.144153524315344,0.9490730017062762,0.09725157050129828,0.1302956422880756,1.502268939960249,-1.858720318429557,0.4496721682299306,-2,0.9379999895824802,-0.1059164285600788,0.3710580263452234,-0.5083858174506998,0.5994814868965548,0.06830535870374961,1.847485759019144,0.7382311211662403,2.306308646225662,0.1096662519391529,1.904003763790261,-3.604965298040768
0.65,0.5,0,0.5,0,0,0,10,2,0.1899599326933981,-0.0302293949981513,1.296708300596436,-3.279566094759611,1.148620804382922,0.9702429286569981,0.09669120905938861,0.1386918657313601,1.445466451656087,-1.826950854353412,0.4467280067578714,2,0.9295438939372467,-0.1068732729015534,0.3752917579922648,-0.4831376663896416,0.5972673821797787,0.07705497119402258,1.855307932303401,0.7417919944598925,2.290558153730049,0.1095524934088412,1.96237701025793,4.507412940484936
0.66,0.5,0,0.5,0,0,0,10,2,0.1909192281873759,-0.02875885301572041,1.310585079342202,-3.297350214946665,1.152798272364293,0.9479683569877534,0.09592954939778445,0.147054198243089,1.387677874576592,-1.778412018705368,0.4177467981370406,-2,0.9212991934728852,-0.1077969739971375,0.379333001841711,-0.5103119475473874,0.5982442270954081,0.05652300276067523,1.861166141218213,0.7569306648365117,2.275692570957851,0.1804157878146229,1.913876013183036,-3.629708405753151
0.67,0.5,0,0.5,0,0,0,10,2,0.1918725262340224,-0.02720713620670927,1.32387910583632,-3.3148364266579,1.15696078822716,0.9689106580693103,0.0953298046646482,0.1551716809011142,1.3294026494118,-1.748621171123524,0.4162515862867415,2,0.9132612464639258,-0.1086996793993293,0.3832313825381736,-0.4853941402071935,0.5966197844394358,0.06520924524176507,1.868785079913691,0.7568964305802923,2.274941378424049,0.1791619886258897,1.972157309528038,4.48426189011805
0.68,0.5,0,0.5,0,0,0,10,2,0.1928176409362429,-0.02557529440211774,1.336585716460125,-3.331858318770208,1.160845741068119,0.9464258096729857,0.09451147022204989,0.1631841804591523,1.270661062380514,-1.702189211230752,0.3884952840958714,-2,0.9054474334851949,-0.1095667625283294,0.386960367213161,-0.512910792762531,0.5976887917035931,0.04461207558856407,1.874457673204577,0.7686716305242013,2.273534161769021,0.247980799056378,1.922901774601588,-3.651190734779214
0.6900000000000001,0.5,0,0.5,0,0,0,10,2,0.1937560297800375,-0.02386645656523602,1.348704952979492,-3.3486002967488,1.164729522532808,0.9671719895432859,0.09383888437945608,0.1708837836881728,1.211923651936691,-1.674197797859298,0.3883781464689234,2,0.8978515484876677,-0.1104106254153258,0.3905693951668099,-0.4883134154796254,0.5966796880006421,0.05320069176517425,1.88189264427958,0.7654638567248063,2.28551022644531,0.2455884703607993,1.981201125433631,4.464106310696673
0.7000000000000001,0.5,0,0.5,0,0,0,10,2,0.1946853795455629,-0.02208231340548509,1.360236540241655,-3.364897152730171,1.168346910105039,0.9445062847004133,0.09293497655254562,0.1784143159750929,1.153158726216318,-1.62968559813709,0.3617387572230444,-2,0.8904879965183998,-0.1112173094104429,0.394031233756974,-0.516179335996239,0.5978522008013806,0.03246968317314539,1.887393313741296,0.774317010508992,2.295383646664339,0.3124416007254553,1.931149858257785,-3.669871052326876
0.71,0.5,0,0.5,0,0,0,10,2,0.19560703552037,-0.02022660257439235,1.371184652435641,-3.380930513264158,1.171976267645677,0.9650834192677289,0.09216559748070369,0.1855710831092734,1.094811219398616,-1.60333605339871,0.3629357540637859,2,0.8833492678625506,-0.1119994249144062,0.3973947810430409,-0.4918902025021389,0.5974733383785403,0.04093857786495925,1.894657902307349,0.7683735027916879,2.318009422509205,0.3089149874695054,1.989586347372397,4.44652388195245
0.72,0.5,0,0.5,0,0,0,10,2,0.1965185991492826,-0.01830157995450941,1.381552659195877,-3.396536298013356,1.175349343379583,0.942262253020335,0.09115636289126888,0.1925022619882938,1.03680067602364,-1.5605784749198,0.3373075733906516,-2,0.8764470603598776,-0.1127435879891367,0.4006317120107542,-0.5201110263821713,0.598747125927184,0.02001477419828887,1.899994803996305,0.7747566110857298,2.337180117001717,0.3738812522848534,1.93868535193735,-3.686133526794344
0.73,0.5,0,0.5,0,0,0,10,2,0.1974213482934645,-0.01631151566155405,1.391348160472633,-3.411893636826445,1.178746953314274,0.9626936892484552,0.09027491441818586,0.1990064292955366,0.9795501276755588,-1.53573388130887,0.3397609934691029,2,0.8697728604681794,-0.1134625689141539,0.4037901608799975,-0.4961166485064542,0.5990043121370522,0.02835148064893066,1.907097167222179,0.766518267520975,2.368578676114268,0.369227608832067,1.997382632808069,4.43115926363051
0.74,0.5,0,0.5,0,0,0,10,2,0.1983128361045698,-0.01425915150865081,1.400577496860851,-3.426839503444523,1.18189737245828,0.9397390303775144,0.08914878111053062,0.2052364152903236,0.9229336388217798,-1.494586661807801,0.3150419144005269,-2,0.8633359359848853,-0.1141434688602137,0.4068404351066306,-0.5246967680190187,0.6003660339641327,0.007184635486769591,1.912273520766323,0.7708813415181159,2.395260856239403,0.4323854383346957,1.945569528368136,-3.700305068184995
0.75,0.5,0,0.5,0,0,0,10,2,0.1991943119367858,-0.01214921129094191,1.409251059100607,-3.441550795731617,1.185084367825668,0.9600449284083731,0.08814758322159646,0.2109940217708899,0.867356223975668,-1.471129228709441,0.3186995367388932,2,0.8571270825766997,-0.1147991707555415,0.4098297928559069,-0.5009831311963913,0.601257580970831,0.01538414357898612,1.919217007652511,0.7607815266072913,2.433754352102039,0.4266153358667886,2.00465210483584,4.417708841553015
0.76,0.5,0,0.5,0,0,0,10,2,0.2000633121351665,-0.009984841795816227,1.417377556052142,-3.455865469939651,1.18803228762418,0.9369757864457495,0.08690001983806779,0.2164369495125688,0.8126496951534385,-1.431467420803417,0.294791979851209,-2,0.851153405180387,-0.1154171784763727,0.4127269982878688,-0.5299257023603929,0.6026850172348046,-0.006068162818197307,1.924231912805748,0.7635625338335399,2.466356294741435,0.4880424130440297,1.951859810877066,-3.712668089908845
0.77,0.5,0,0.5,0,0,0,10,2,0.2009210900900383,-0.007771140770554876,1.424969605552386,-3.469958436015902,1.191028350889738,0.9571735465063234,0.08577779548718856,0.2213701025261351,0.7592049500243973,-1.409296607625071,0.2996063265557879,2,0.8454053161663151,-0.1160104438790733,0.4155784089045272,-0.5064788635187296,0.6042032146543314,0.001994758728833518,1.931015841867394,0.7520186671417379,2.510458936249177,0.4811700095874434,2.011450017129214,4.405909595310825
0.78,0.5,0,0.5,0,0,0,10,2,0.2017651911469225,-0.005511578859499706,1.432037751866496,-3.483668563417154,1.193792529487316,0.9340063434592057,0.08441010568841496,0.225956191105517,0.7068146314109931,-1.371012740125127,0.2764178597577367,-2,0.8398880021110423,-0.1165668004548401,0.418351151108544,-0.5357857862793869,0.6056672431456652,-0.01977838453031322,1.935865170244613,0.7536356658377164,2.547574763979149,0.5409428928051936,1.957609798750917,-3.723469706790424
0.79,0.5,0,0.5,0,0,0,10,2,0.2025968988168348,-0.003211548469450376,1.438596344964987,-3.497168995320538,1.196615984092642,0.9541109501581242,0.08317076699123481,0.230003039004933,0.6558593098491055,-1.350043190338455,0.282345460532625,2,0.8345917815002037,-0.117099229985402,0.4210907234593609,-0.5125923176446645,0.6077996759848436,-0.0118473448235589,1.942485655486893,0.7410427305216778,2.595982088117562,0.5329861423596398,2.01782538618846,4.39553113615876
0.8,0.5,0,0.5,0,0,0,10,2,0.203413787784966,-0.0008747641355208416,1.444657298366934,-3.510299448327474,1.199213875799964,0.9308598246787848,0.08168889681311599,0.2336784333929534,0.6060953401946959,-1.313045300693533,0.2597891707322397,-2,0.8295201367777472,-0.117595832816692,0.4237625845335193,-0.5422641834868035,0.6092659931833644,-0.03397033525815787,1.947162936461332,0.7418878839465277,2.636380459388478,0.5911798596507687,1.962869345188631,-3.732928234325816
0.8100000000000001,0.5,0,0.5,0,0,0,10,2,0.2042171915433427,0.001493164771238187,1.450236263935072,-3.523231495524084,1.201881774366975,0.9508841329917712,0.08034037583767249,0.2367928906759029,0.5578965568138288,-1.293204719661044,0.2667898567010702,2,0.8246635563191256,-0.1180695868218574,0.4264114630524563,-0.5193114873696469,0.6119966928110228,-0.02616363730922295,1.953613699217085,0.7286135798706974,2.687956330589269,0.5821606479511336,2.02382158952777,4.386370110586042
0.8200000000000001,0.5,0,0.5,0,0,0,10,2,0.2050047294356402,0.003888357540732512,1.455346120667396,-3.535805639295235,1.204329619657419,0.9275611972861988,0.07875378922975523,0.2395192769494325,0.5109856732323868,-1.257414377115081,0.2447845290444202,-2,0.8200239987991949,-0.1185088069944659,0.429001169073535,-0.5493474945875004,0.6134272883298424,-0.04865969711848257,1.958110954713385,0.7290487708123475,2.730567322350773,0.6388482539323692,1.967684679771836,-3.74123771114991
0.8300000000000001,0.5,0,0.5,0,0,0,10,2,0.205777799025459,0.006305062963222684,1.460003451882568,-3.548192053846392,1.206857827343002,0.947516177804715,0.07730695898187948,0.2416705422490173,0.4657331215172603,-1.238641455115688,0.25282076855825,1.995498051851617,0.8155923568720538,-0.1189264385603962,0.4315757817500577,-0.5266240129986153,0.6167377155965743,-0.04096798535289744,1.964384081610463,0.7154300647542551,2.7843297583582,0.6287924680973913,2.029476925206314,4.378246316353127
0.84,0.5,0,0.5,0,0,0,10,2,0.2065340752096131,0.008739308707398427,1.464221755611111,-3.560231972436738,1.209170736541043,0.9241767611932539,0.07562761841540509,0.2434245744175743,0.4218303728542944,-1.203991859034624,0.2312909198041257,-2,0.8113692113176796,-0.1193109691840721,0.4340975185057758,-0.5569667260966982,0.6180949894551535,-0.06382308456819355,1.968692577976548,0.7157838587077199,2.82823090951233,0.6840445738683121,1.972098562751242,-3.739567118549682
0.85,0.5,0,0.5,0,0,0,10,2,0.2072750255075834,0.01118527535478429,1.46801822701863,-3.572094149274765,1.211573696154473,0.9440689979638304,0.07409502979703514,0.2445966647385857,0.3796471407519022,-1.186217683802739,0.2402959613429416,1.98922367705765,0.8073460668217182,-0.1196752758911197,0.4366099052633253,-0.5344651647805342,0.6219644249067497,-0.056237288501331,1.974777683811892,0.7021391707511897,2.883326445241242,0.6730153675247776,2.034762643224319,4.370744484987044
0.86,0.5,0,0.5,0,0,0,10,2,0.2079983890166651,0.01363896944759673,1.471406689114942,-3.583620680273668,1.213765441552357,0.9207369882985004,0.07233635090817098,0.245369409281245,0.3388462096311952,-1.152653099890268,0.219174539788451,-2,0.8035222352665395,-0.1200080005762761,0.4390736950664804,-0.5650917028248883,0.6232101483788144,-0.07945255597637504,1.978889311616503,0.7027037708332735,2.927730048421242,0.7268636808081634,1.976155795256437,-3.733768902301914
0.87,0.5,0,0.5,0,0,0,10,2,0.2087057074678264,0.01609457169912549,1.474404680292007,-3.594978959462925,1.216056470880044,0.940570864502338,0.07073184511612288,0.2455602251528753,0.2997991177065105,-1.135827918925747,0.2291029327686809,1.983387620383754,0.7998900061203172,-0.1203219269311847,0.4415319877896018,-0.5428067710042093,0.6276165578148878,-0.07196352303810941,1.984777045271004,0.689307556961551,2.983437129299511,0.7149064429825547,2.039747660558296,4.363655250904541
0.88,0.5,0,0.5,0,0,0,10,2,0.2093947893629723,0.01854813346730811,1.477026101165603,-3.606011970540524,1.218139762512819,0.9172459435308554,0.06890818951459243,0.2453561768182621,0.2621420873596078,-1.103301107759906,0.2083291632775368,-2,0.7964475070435773,-0.1206058319185863,0.4439441908201857,-0.5737204604161223,0.6287109284500911,-0.09555158564619795,1.988683910909511,0.690338682642303,3.027675634618552,0.7674026043918185,1.979893823290229,-3.72846475203234
0.89,0.5,0,0.5,0,0,0,10,2,0.2100672523995082,0.02099389841278338,1.479288609987901,-3.616885864669592,1.220331285688032,0.9370252454750473,0.06724630365358433,0.2445764945475273,0.2262508822297434,-1.08738941290672,0.2191523175212824,1.977930194419184,0.7931879550034104,-0.1208723901085743,0.4463531243343429,-0.5516472551712361,0.6336317150031255,-0.08814990747446524,1.994365672952457,0.6774231767654041,3.083390103325386,0.7545497996868926,2.044489269736222,4.356920158025169
0.9,0.5,0,0.5,0,0,0,10,2,0.2107209763897911,0.02342802370659461,1.481205978776763,-3.627444460528178,1.222317986226022,0.9137070966015711,0.06537239902829461,0.2434125293811226,0.1917368788861772,-1.055859585858603,0.1986700537990198,-2,0.790108353918533,-0.1211104952116856,0.4487169570379585,-0.5828481446576499,0.6345347336963056,-0.1121184735850048,1.998060282609002,0.6791404705535091,3.126902380749786,0.8057597206838665,1.983344310272322,-3.723593821408369
0.91,0.5,0,0.5,0,0,0,10,2,0.2113576530235237,0.02584487386348124,1.482795800412844,-3.637852755013466,1.22442157762963,0.933435060452933,0.06366766337326193,0.2416850156886627,0.158982163608093,-1.040829448528763,0.2103591403608318,1.972796385136185,0.7872029663844767,-0.1213327000025435,0.4510783680603059,-0.5609822690815619,0.6399471688012102,-0.1047949247110782,2.003527681596974,0.6669037212032418,3.182118777906156,0.7920482015505801,2.049008313074657,4.350485228987729
0.92,0.5,0,0.5,0,0,0,10,2,0.2119752332599586,0.02824076756049639,1.484071548302067,-3.647955366302999,1.226322745221171,0.9101233684480022,0.06175802364348591,0.2395893697015149,0.1275747889223551,-1.010261128953284,0.1901167591540598,-2,0.7844677098505899,-0.1215280037533815,0.4533944010753498,-0.5924671547814212,0.6406192667484681,-0.1291470720331759,2.007003576596762,0.6694911444390372,3.224438033992906,0.8420329079045117,1.986536566563764,-3.719100141562523
0.93,0.5,0,0.5,0,0,0,10,2,0.2125754780986846,0.03061024286047865,1.485050597994536,-3.657916197275105,1.228349169885303,0.929802734760528,0.06002448387260242,0.2369475299982263,0.09790496924685689,-0.9960830972106429,0.2026424664131816,1.967936631252571,0.7818979890530212,-0.1217088268861142,0.4557077206640848,-0.5708047822316025,0.6465008205400412,-0.1218929237039201,2.012248919536917,0.6580977064996696,3.278737822493073,0.8275037438244075,2.053323106527909,4.344301757456503
0.9400000000000001,0.5,0,0.5,0,0,0,10,2,0.2131564082201137,0.03294983007869482,1.485745985850925,-3.667580648797006,1.23017509699778,0.9064971855075488,0.05809301214290757,0.2339587218216167,0.06953878563892887,-0.966445152190018,0.1825927112477852,-2,0.7794886530464454,-0.1218642689693359,0.4579743622292006,-0.6025672245673717,0.6469033659277537,-0.1466273302403862,2.015501026428606,0.6617044600558137,3.319480517990663,0.8763190114009816,1.98949764830275,-3.714933381387951
0.9500000000000001,0.5,0,0.5,0,0,0,10,2,0.2137198472761867,0.03525428809800789,1.486174746955339,-3.677111562023929,1.232134347405288,0.9261302610003249,0.05634390560730416,0.2304458019313068,0.04287611044134824,-0.95309132269234,0.1959250407507733,1.96330754927762,0.7772363265675706,-0.1220066089035918,0.4602370871407245,-0.5811051176455978,0.6532319538422631,-0.1394345592317723,2.020517603990613,0.6512865339935425,3.372521381315857,0.8610173191460591,2.057449705929196,4.338327049278484
0.96,0.5,0,0.5,0,0,0,10,2,0.2142638835618397,0.03752040327938583,1.486349369575255,-3.686355123569931,1.233894595699224,0.9028305410063113,0.05440362856529962,0.2266115181377938,0.01746226199159922,-0.9243561546002254,0.1760248293935478,-2,0.7751347929958231,-0.1221250461760056,0.4624510399060324,-0.6131354572665652,0.6533276596114932,-0.1645456907175629,2.02354242120509,0.6560284001718897,3.411377180291459,0.9087133500354418,1.992252459504146,-3.711049577713005
0.97,0.5,0,0.5,0,0,0,10,2,0.2147903953191604,0.03974319705061887,1.48628645000671,-3.695473117653627,1.235795925030747,0.9224192665336201,0.05265117573207517,0.2222793771233043,-0.006291956854477643,-0.9117994083695834,0.1901329331523613,1.958872552730878,0.7731819590865714,-0.1222317098212469,0.464659173009518,-0.5918709488758158,0.6600818206733545,-0.1574071003090078,2.028324670477484,0.6466873257235066,3.46288339443917,0.8926881263645068,2.061402153017177,4.33252506081912
0.98,0.5,0,0.5,0,0,0,10,2,0.2152975361024972,0.04191975041929659,1.486191389381057,-3.704312540561521,1.237499356420065,0.8991250621015527,0.05071407833367965,0.2176553368677716,-0.009506062565259075,-0.883942290789417,0.1703431389318333,-2,0.771287124118694,-0.1223341433827144,0.4668031840026802,-0.6240445862790794,0.6597057987788589,-0.1827030600297874,2.031120347628517,0.6526483425512022,3.499606126306757,0.9393092750575358,1.994823852218608,-3.70741176723042
0.99,0.5,0,0.5,0,0,0,10,2,0.2157874756384371,0.04404542150344664,1.48606729144053,-3.713034194500736,1.239350355594025,0.9186728801244231,0.04899395359398384,0.2125671084150053,-0.01240979405276627,-0.8721653939215284,0.1850999173959389,1.954781802287031,0.7694546151319126,-0.1224431112452874,0.468926056369632,-0.6027586645597275,0.6666072053166795,-0.175265074363983,2.035786884446437,0.6447490997209593,3.509196310011052,0.9225937995443183,2.065002139082559,4.327046370921011
1,0.5,0,0.5,0,0,0,10,2,0.2162588043749805,0.0461176905409289,1.485912713405072,-3.721486026699057,1.241002497878123,0.8953871298204277,0.04713287365434273,0.2072269037482265,-0.01545780354574539,-0.8451832198320725,0.1652142284098035,-2,0.7676810525583934,-0.1225467338466382,0.4709814824242966,-0.6349489386428887,0.6656434201939686,-0.2005585882553823,2.03854192122773,0.6525368228561879,3.504682624865628,0.9681593846782763,1.996890313012269,-3.703843926678966
1.01,0.5,0,0.5,0,0,0,10,2,0.2167139095399076,0.04813231050049027,1.485730951271765,-3.729827660931145,1.242807397884915,0.9149022810407442,0.04551051649270677,0.201461995956137,-0.01817621333067749,-0.8341634232088189,0.1804900006792356,1.951515122031654,0.7659718303718301,-0.1226555021665159,0.4730131324646437,-0.6136506529170611,0.6727051832458836,-0.1928523575213487,2.043063573125627,0.6463390463328149,3.514848978264498,0.9508399599071271,2.068254999816166,4.322373025504271
1.02,0.5,0,0.5,0,0,0,10,2,0.2171515049838391,0.05008717316005622,1.485520598770662,-3.737907966956207,1.244412506615936,0.8916239508968818,0.0437595443931476,0.1954862659565942,-0.02103525011034883,-0.8080306025061657,0.160510873102057,-2,0.764322254790114,-0.1227576451656856,0.4749745332545594,-0.6458485255070461,0.671179562831334,-0.2181443659610873,2.045633655294519,0.6558703387241882,3.510429174055727,0.9954018497107215,1.998877552970135,-3.701219191995214
1.03,0.5,0,0.5,0,0,0,10,2,0.2175739939803948,0.05197843811856195,1.485285121103952,-3.745885320321578,1.246175275557756,0.9111139812084106,0.04224889965557747,0.189126495850573,-0.02354776667098882,-0.79773533653708,0.1762768941820176,1.949003031152877,0.7627387260720662,-0.1228635296657575,0.4769099735968885,-0.6245463332422156,0.6784133641219471,-0.2101989395211621,2.049924522335095,0.6512972387907572,3.521101277155641,0.9775376325813379,2.071369826411122,4.318438122962444
1.04,0.5,0,0.5,0,0,0,10,2,0.217980095776494,0.05380441669611967,1.485023132373369,-3.753609589552168,1.247737338371306,0.8878420933762906,0.04061017960991564,0.1825978577557723,-0.02619887305832638,-0.77242692305898,0.1562062813549725,-2,0.7612152324820236,-0.1229615976089294,0.4787728565573071,-0.6567427930555365,0.676348948103334,-0.2354899725190108,2.052266448221558,0.6624768000530488,3.516726400324014,1.021124755884961,2.000791491372352,-3.699460174075821
1.05,0.5,0,0.5,0,0,0,10,2,0.2183721539675296,0.05556168252699311,1.484738244662577,-3.761237825970118,1.249461700032224,0.9073138840089864,0.03920581910356176,0.175726583087344,-0.02848877107915618,-0.7628236417950099,0.1724361660918041,1.947179063269576,0.7597591407927121,-0.123062141713445,0.4806080248762111,-0.6354449593438677,0.6837650458883073,-0.2273322955091753,2.056304610400671,0.6594391484987325,3.52783616516815,1.002774125399411,2.074357971511935,4.315177583820113
1.06,0.5,0,0.5,0,0,0,10,2,0.2187488552664835,0.05724897028886445,1.484429076653506,-3.768620981077349,1.250984455331946,0.8840475204315182,0.03767012989539294,0.1687287761871337,-0.03091680090710129,-0.738315510723181,0.1522755299722587,-2,0.7583631269234652,-0.1231538568813411,0.4823687969448727,-0.6676310902628541,0.6811821702045304,-0.252622220658526,2.058414963623535,0.672160863394644,3.523458416024177,1.04541179184396,2.002637509928286,-3.698492309929492
1.07,0.5,0,0.5,0,0,0,10,2,0.2191124591538202,0.0588632708375231,1.484099365952406,-3.775914699611592,1.252673904136814,0.9035073299519563,0.03636038873366965,0.1614300548658649,-0.03297107011001954,-0.7293718534242244,0.1689448804867517,1.945980952043799,0.7570354961045996,-0.1232469718134899,0.4841005080390706,-0.6463457534926604,0.6887894228277789,-0.2442771367650286,2.062203090758736,0.6705584923749006,3.534940821111609,1.026632380759332,2.077229507778291,4.312531343983636
1.08,0.5,0,0.5,0,0,0,10,2,0.2194616140341748,0.06040374199141488,1.483747720636532,-3.782971107383717,1.254160855915899,0.880245631951321,0.03491548803546061,0.1540471153891777,-0.03516453158740168,-0.7056407772125834,0.1486951779085686,-2,0.7557676214523207,-0.123330448094207,0.4857564286475176,-0.6785126210928543,0.6857059210011527,-0.2695649385319568,2.064093040210115,0.684706811135566,3.530514353833481,1.068342463211451,2.004420450010528,-3.69824544499741
1.09,0.5,0,0.5,0,0,0,10,2,0.2197984912268281,0.06186779098206856,1.483377983607054,-3.789944354011909,1.255818668241953,0.8996991439402019,0.03368771926532941,0.1464048990653687,-0.03697370294781029,-0.6973246628191485,0.165781232605307,1.945351198888094,0.7545687263102241,-0.1234144448298093,0.4873823278668854,-0.6572477312350712,0.6935118248612984,-0.2610552005594681,2.067642292990903,0.6844301337997416,3.542307955462707,1.049191141527927,2.079993314599227,4.310443933202539
1.1,0.5,0,0.5,0,0,0,10,2,0.2201217073692268,0.06325499470691456,1.482988737953076,-3.796687837452081,1.257273097238856,0.8764413100868165,0.03232161423987061,0.1387203724846,-0.03892456539780841,-0.6743483440172388,0.1454428996903838,-2,0.753428892405965,-0.1234881934852956,0.4889314633075114,-0.6893862160946966,0.6899432422037537,-0.2863387914961792,2.06932739317294,0.699881488752273,3.537789477226157,1.089992228178273,2.006144648849765,-3.698654560161869
1.11,0.5,0,0.5,0,0,0,10,2,0.2204333491885616,0.06456317211191935,1.482583912889997,-3.803354117809418,1.258902339406016,0.8958936836757592,0.03116418193347231,0.1308177405004791,-0.04048250630785669,-0.6666280357336525,0.1629242167160065,1.945237358894269,0.752358246677595,-0.1235617722301033,0.4904499814496279,-0.6681494305039966,0.6979539817554909,-0.2776850799877167,2.072650986805048,0.7008130384137758,3.549836763595803,1.070525075465033,2.082657183260567,4.308864773556187
1.12,0.5,0,0.5,0,0,0,10,2,0.2207320122517521,0.06579231148391476,1.482162053082162,-3.809797969011234,1.260327311007243,0.8726389668901204,0.02986630631905319,0.1229139371995405,-0.04218598078351291,-0.6443851201816377,0.1424971601226519,-2,0.7513455920621471,-0.1236246815178778,0.491891160723224,-0.7002500621321129,0.6939137988735034,-0.3029611452923792,2.074147189452725,0.7174372895161001,3.545185980611035,1.110432614691167,2.00781398628307,-3.699660120957621
1.13,0.5,0,0.5,0,0,0,10,2,0.2210197046399497,0.06694063524907388,1.481727156401506,-3.816170261776864,1.261930844411888,0.8920948886690251,0.0287692388197621,0.1148323765159129,-0.0434896680656377,-0.6372292765629475,0.1603533404645616,1.945592177890461,0.7504019493673965,-0.1236869054440107,0.4933014704747951,-0.6790486333485833,0.7021343067609842,-0.2941820949451596,2.07725794894463,0.7194532655179925,3.557433602235553,1.090704891711661,2.085227926195375,4.30774833024952
1.14,0.5,0,0.5,0,0,0,10,2,0.22129501239056,0.06800853200917048,1.481277716703075,-3.822327255319739,1.263329213797133,0.8688425930421719,0.02753077506102524,0.1067896760096592,-0.04494396984302233,-0.6156993542875387,0.1398369385244647,-2,0.7495148563785464,-0.1237382110641518,0.494634242658716,-0.7111014470258716,0.6976341690214596,-0.3194459716249353,2.078580167776768,0.7371151574167261,3.552613540207762,1.129731344641694,2.00943193182301,-3.701208228657406
1.15,0.5,0,0.5,0,0,0,10,2,0.2215598711551215,0.0689946161280344,1.480817784224588,-3.828418026054195,1.264909697695729,0.8883063294305608,0.02648587645615419,0.09860841188639172,-0.04599324784876902,-0.6090770734456397,0.1580483898596061,1.946373638838883,0.7486962221449717,-0.1237884750140458,0.4959362165811831,-0.6899421161545588,0.7060681946934827,-0.3105582050189271,2.081489717459438,0.7400869615979502,3.565012439983773,1.109797462865323,2.087711483195474,4.307054172604937
1.16,0.5,0,0.5,0,0,0,10,2,0.2218128685242888,0.069899662327982,1.480345790749638,-3.834300432750701,1.266284112729607,0.8650558069318796,0.02529973691673511,0.0905046199947606,-0.04719934749495114,-0.5882406696505516,0.1374415033878256,-2,0.7479323340397345,-0.1238277280856391,0.4971608096769034,-0.7219365417430309,0.7011181444510634,-0.3358037965563015,2.082651427321076,0.7586475791732274,3.55998965533699,1.147952469556144,2.011001586538979,-3.70325066326901
1.17,0.5,0,0.5,0,0,0,10,2,0.2220558733979641,0.07072266234212531,1.479865823975032,-3.840121648047157,1.267844005175657,0.8845312562969313,0.02430048736752313,0.08230000141433046,-0.04799667746057688,-0.5821215296456089,0.1559892446050037,1.947544936505177,0.7472359872481267,-0.1238657263910208,0.4983549796533426,-0.7008254424937765,0.7097683297425517,-0.3268219647223538,2.085370035337482,0.7624433272162691,3.572495114287771,1.127865954913962,2.090113023203025,4.306746963935143
1.18,0.5,0,0.5,0,0,0,10,2,0.2222874850683001,0.07146475998139111,1.479376243514268,-3.845741248914314,1.269196907543678,0.8612819035081178,0.02316116703360502,0.07420976392658078,-0.04895804607642564,-0.5619600867157359,0.1352902368020683,-2,0.7465922346898313,-0.1238927614838937,0.4994722607919963,-0.7327502283921581,0.7043770382845616,-0.3520416915772337,2.086383275744,0.7817615310682714,3.567239813664152,1.165156516361575,2.01252571997246,-3.705744840553887
1.19,0.5,0,0.5,0,0,0,10,2,0.2225095105489746,0.07212530705008388,1.478881160995286,-3.85130439075028,1.270738464964589,0.8807726474529379,0.02220254806745081,0.06605470686927745,-0.04950825189817201,-0.5563141835965717,0.1541557420910922,1.949074394482004,0.7460147585701865,-0.1239184563998331,0.5005597787746706,-0.7116928033986785,0.7132449985486951,-0.3429785209706628,2.088919948103394,0.786247522409748,3.579811425772418,1.144969964262512,2.092437040534465,4.306796394176567
1.2,0.5,0,0.5,0,0,0,10,2,0.2227205699074322,0.07270579687413019,1.478378854942094,-3.856672491083869,1.272072090028091,0.8575239023740658,0.0211059358457534,0.05804898240463108,-0.05023060531924788,-0.5368100333589342,0.133362506350162,-2,0.7454873946509631,-0.1239333604816532,0.5015712155851545,-0.7435359762319612,0.7074199948341653,-0.3681633067400952,2.089795471900661,0.8061813499205325,3.57429750549402,1.181400642961786,2.014006801743515,-3.708653706596915
1.21,0.5,0,0.5,0,0,0,10,2,0.2229224122696356,0.07320592160700852,1.477873448741487,-3.861988571272266,1.273597365892351,0.8770332556148123,0.02018423622034579,0.050012473287833,-0.05054062006068065,-0.5316080188396299,0.1525275864260276,1.950935324074643,0.745024715508814,-0.1239469516983955,0.5025538154154944,-0.7225369060517183,0.7165064042560316,-0.3590296523376985,2.092158130493429,0.8112234825016953,3.586899096194569,1.161165657489706,2.094687443711054,4.307177054591418
1.22,0.5,0,0.5,0,0,0,10,2,0.2231136864709014,0.07362750227967946,1.47736313208252,-3.867116014733143,1.274913741703254,0.8537845945926842,0.01912742012657875,0.04215806726709326,-0.05103166589666661,-0.5127443460877809,0.1316375810902928,-2,0.7446093584732041,-0.1239500342223741,0.5034614383015661,-0.7542857653278006,0.710254297695224,-0.3841689448525735,2.09290559185018,0.8316315003806452,3.581104115105516,1.196738797071226,2.015447029087099,-3.711945569223107
1.23,0.5,0,0.5,0,0,0,10,2,0.2232960869141473,0.07397054956046804,1.476852029256309,-3.872195589381798,1.27642458470217,0.8733156529067438,0.01824004432459101,0.03430472807885918,-0.05111028262113161,-0.5079574648654749,0.1510842998916402,1.953105831405969,0.7442567917932503,-0.1239519295408667,0.5043413983232222,-0.7333489100614744,0.7195589774633296,-0.374973849194106,2.095101268505492,0.8370966170702248,3.593703612423433,1.176505915073877,2.096867639164627,4.307868260682013
1.24,0.5,0,0.5,0,0,0,10,2,0.2234682981582992,0.07423718845006827,1.476338234522818,-3.87709277200575,1.277725530588666,0.8500665876985218,0.01722112441518857,0.02666388896002294,-0.05137947334904186,-0.4897182623951875,0.1300945886495464,-2,0.7439484745807426,-0.1239436936853475,0.5051477633526216,-0.7649900562577522,0.712885672136957,-0.4000556753157613,2.095729409028055,0.8578392126010508,3.587608709944847,1.211221877347748,2.016848350289711,-3.715593876533591
1.25,0.5,0,0.5,0,0,0,10,2,0.2236319622810052,0.07442772449894992,1.475825863491829,-3.881945955916255,1.279223582711619,0.8696222734172782,0.01636641227059931,0.01905360488816511,-0.0512371030989386,-0.4853183910505824,0.1498052122953277,1.955568571875628,0.7437007774962051,-0.1239344808304118,0.5059278695047609,-0.7441184096957096,0.7224076801801894,-0.3908064334636207,2.09776442964629,0.8635963682623921,3.600177980638698,1.191040472956818,2.098980607351815,4.308853822236721
1.26,0.5,0,0.5,0,0,0,10,2,0.2237858055450921,0.0745445613301729,1.475312909514584,-3.886622839985799,1.280510707810337,0.8463723484230237,0.01538432640868543,0.01168368312229774,-0.05129539772449535,-0.4676884069543629,0.1287125098717476,-2,0.7434940031616873,-0.1239155958537765,0.5066360215908081,-0.775637803634658,0.7153185781069122,-0.415817485812066,2.098281246949843,0.8845369685297648,3.593767749757892,1.224897893800368,2.018212486562529,-3.71957693985776
1.27,0.5,0,0.5,0,0,0,10,2,0.223931419412836,0.07458827425817512,1.47480347114586,-3.891259320928734,1.281997402661752,0.865955452966333,0.01456138677439571,0.004371292800222245,-0.0509438368724049,-0.4636480942934699,0.1486694851414911,1.958310454330931,0.7433454323247903,-0.1238960153897792,0.5073195306543729,-0.7548334598614147,0.7250562991224491,-0.4065197162986814,2.100161396541787,0.8904586075213911,3.606282409663064,1.20481606431253,2.101028972792374,4.310121762643519
1.28,0.5,0,0.5,0,0,0,10,2,0.224067576920614,0.07456151888093507,1.474295436415883,-3.895725448655991,1.283272104732984,0.8427042426259118,0.01361575077780048,-0.00267553772400534,-0.0508034729976613,-0.446612772725691,0.1274702071232745,-2,0.7432342343476079,-0.1238672900778931,0.5079329667054102,-0.7862165107833029,0.7175564903906885,-0.4314454696520781,2.100574290407422,0.9114648147574087,3.599544737103473,1.237812124922791,2.019540951226587,-3.7238776075141
1.29,0.5,0,0.5,0,0,0,10,2,0.2241958200194128,0.07459498411217999,1.473792879600201,-3.900154501489059,1.284748666394044,0.8623174656161613,0.01282430987987646,0.00334652312449165,-0.05025568156827055,-0.4429052833068197,0.1476561661059406,1.961322299024946,0.743114214744966,-0.1238528930066529,0.5085906231740462,-0.7653839944888274,0.7274364261423826,-0.4219578515766435,2.102304956570686,0.9174278526227975,3.611983943361134,1.217876556300397,2.10301506726401,4.311663991309789
1.3,0.5,0,0.5,0,0,0,10,2,0.2243151684604868,0.07455800825457842,1.473293524496257,-3.904418823544196,1.286011267497275,0.8390663598476131,0.01193484410740048,-0.003697585760156714,-0.04993551039434709,-0.426432205513627,0.1262601103231205,-2,0.7430295088877046,-0.1238293974918743,0.5091783097511575,-0.7965189130277037,0.7194695735364947,-0.4466357825997226,2.10271871182659,0.9117600485966469,3.604737738394414,1.250044259126549,2.020662323805131,-3.728304105516074
1.31,0.5,0,0.5,0,0,0,10,2,0.2244272235069869,0.0745813023611373,1.472801363672305,-3.908648971314073,1.287476957714579,0.8587158237766684,0.01120550465000671,0.002329410655888411,-0.04921608239518071,-0.4230147769876857,0.146569021730369,1.964946392905533,0.7429348391411512,-0.1238200185317537,0.5098100993439614,-0.77565627385872,0.7294933187858458,-0.4369639350227658,2.10436050819324,0.9177630695408591,3.616924958937538,1.230296387526111,2.104762762901605,4.31382459321596
1.32,0.5,0,0.5,0,0,0,10,2,0.2245311109749906,0.07453422047036266,1.472313964991737,-3.912719873760698,1.288726770816112,0.8354642074008296,0.01038874680037129,-0.00470818907746424,-0.04873986805687595,-0.4070902446625049,0.1249813101533728,-2,0.7428735812000292,-0.1238014420905034,0.5103720874382485,-0.8065321178538023,0.7210783028511787,-0.461380755420574,2.10471315651542,0.9120865724015441,3.609197377778051,1.261597451362253,2.021767361911027,-3.733396105783577
1.33,0.5,0,0.5,0,0,0,10,2,0.2246284014136832,0.07454749618434668,1.471835243602719,-3.916759287597441,1.290180770523534,0.855155763925208,0.00972904386926436,0.001327571398401942,-0.04787213890174223,-0.403941383674374,0.1453999707421636,1.969155652437837,0.7428013370984887,-0.1237966882473466,0.5109781026978109,-0.7856372997957631,0.7312473584510604,-0.4515301013795316,2.106230589979101,0.9181341922434177,3.621147268431783,1.24207213791542,2.106457274405451,4.316578881445589
1.34,0.5,0,0.5,0,0,0,10,2,0.2247182713744514,0.07449049872672618,1.471362619866915,-3.920644806623729,1.291417029115326,0.831903044470424,0.008986996076817317,-0.005699745762050202,-0.047262373580421,-0.3885519026287606,0.1236258591792112,-2,0.742760735938516,-0.1237826007696391,0.5115145464154777,-0.8162448838300629,0.7224029157998892,-0.4756744333146168,2.106504515469889,0.9124467116394045,3.612965750800541,1.272509277294042,2.022855862473559,-3.739121983225593
1.35,0.5,0,0.5,0,0,0,10,2,0.2248022259152496,0.07449398430696218,1.470899936188024,-3.924501320880973,1.292858457529799,0.8516422479680299,0.008395454079819271,0.0003485580235994875,-0.04626836788914689,-0.3856514257244036,0.1441428414472554,1.973920349760596,0.7427082292868686,-0.1237820279451762,0.5120949819841517,-0.795315969456226,0.7327186533087922,-0.4656502254731363,2.10789038523311,0.9185418094883251,3.624694039858593,1.25323806259032,2.108101652542477,4.319899456948019
1.36,0.5,0,0.5,0,0,0,10,2,0.2248794720702875,0.07442733655688114,1.470444473942961,-3.928209158363027,1.294080334817838,0.8283878592959796,0.007724615503786531,-0.006664775008104416,-0.04554622450632764,-0.3707837482053938,0.1221877288039726,-2,0.7426857168209303,-0.1237719894733331,0.5126061335664365,-0.825647945104645,0.7234633059242513,-0.4895125565653597,2.108085543617101,0.9128402767842453,3.616086155552293,1.282815049094632,2.0239275935431,-3.745447184275982
1.37,0.5,0,0.5,0,0,0,10,2,0.2249514374207545,0.0744213340269031,1.470000007781026,-3.931890286519868,1.295508267432968,0.8481799457780224,0.007196535046701365,-0.0006002529978038724,-0.04444661619345338,-0.3681128156841169,0.1427932615129879,1.979208648204278,0.7426504725746994,-0.1237751690366955,0.5131612808587838,-0.8046832465979834,0.7339269369509883,-0.4793198991465766,2.109343690374599,0.9189841862107947,3.627609413276613,1.263826234281521,2.109698673491763,4.323756731594329
1.38,0.5,0,0.5,0,0,0,10,2,0.2250173534040489,0.07447524390512322,1.469563688634111,-3.935427825913919,1.296714894241445,0.8249233502832171,0.006591598329435695,0.005390987822013162,-0.04363191469145853,-0.3537539394050672,0.1206626808476641,-2,0.7425786554553871,-0.1237836539558776,0.5137144426087223,-0.8346338699490649,0.7242154044008728,-0.5027412869164867,2.109466542580453,0.9132648967049242,3.618602669494549,1.292548029529993,2.02498228033702,-3.752334915450737
1.39,0.5,0,0.5,0,0,0,10,2,0.2250787657959036,0.07445645513750981,1.469139172712943,-3.938940596328554,1.298127441534517,0.8447751664436548,0.006141239185469734,-0.001878876761340247,-0.04245159211687904,-0.351277041463555,0.1412547293071775,1.985181616043769,0.7425601566076065,-0.1237896238896365,0.5142427002729403,-0.8136316668579907,0.7348288643253805,-0.4923876734784284,2.110703927266764,0.8928480786255789,3.629764742983103,1.273902764708204,2.111063259509525,4.328313930851395
1.4,0.5,0,0.5,0,0,0,10,2,0.2251348402244921,0.07449759440874641,1.468723494424798,-3.942314737109225,1.299317043338343,0.8215156833232788,0.005607442858854968,0.00411392712365918,-0.04156782881450222,-0.3374140780670484,0.1189601803826583,-2,0.7425036716092499,-0.1238007340187868,0.5147692614839757,-0.8433003497845598,0.7247491568438433,-0.5155156483359005,2.110719495954233,0.9138336641596545,3.620403172201021,1.30173955773554,2.026030817438969,-3.7599577800776
1.41,0.5,0,0.5,0,0,0,10,2,0.2251869875162691,0.07446608562591599,1.468320257695594,-3.945666089728721,1.300713325981977,0.8414315853089542,0.005214729177698759,-0.003150878283043061,-0.04032367292040546,-0.3351352619496015,0.1396282643634057,1.991590198567541,0.7425000986903106,-0.1238089683669279,0.5152709273815558,-0.8222598560330577,0.7355134162154052,-0.5050065923054623,2.111820043450803,0.8935229959612729,3.631409931688886,1.283418925733896,2.11257702608561,4.33332478450671
1.42,0.5,0,0.5,0,0,0,10,2,0.2252343621195842,0.07449458041621047,1.467926388514956,-3.948883645214698,1.301885081834697,0.8181687432345879,0.004737460331514184,0.002849479029448447,-0.03938691806369999,-0.3217555485977658,0.1171755852719076,-2,0.7424572025568501,-0.1238222677603032,0.5157712470003247,-0.8516450642148753,0.7250829314687491,-0.5278378947186255,2.111764724364977,0.9145382358603644,3.621719396803015,1.310418976516483,2.027060946844737,-3.768044017067617
1.43,0.5,0,0.5,0,0,0,10,2,0.2252782766017571,0.07445053659300643,1.467545443735572,-3.95208024520949,1.303264227284588,0.8381527115938762,0.004391448217285673,-0.004404382320403855,-0.03809447793847814,-0.3196599994791374,0.1379145449891184,1.998396835928829,0.7424668564533619,-0.1238323995867115,0.5162467224746891,-0.8305658643473982,0.7359986947391742,-0.5171787491351502,2.11275483013205,0.8943272071252778,3.632587668895951,1.292441663529117,2.114050200722558,4.338753608154505
1.44,0.5,0,0.5,0,0,0,10,2,0.2253178982192428,0.07446662924028961,1.467174248871584,-3.955147756253074,1.304417323494498,0.8148860740808616,0.003962161748565271,0.001609264728318272,-0.03711948639882796,-0.306751104358393,0.1153096209910274,-2,0.7424359277290822,-0.1238475671963873,0.5167212578871359,-0.8596675394073696,0.7252343288383799,-0.5397115280241758,2.112647895708773,0.9153630223840574,3.62259340071005,1.318614213317638,2.028072367587364,-3.776550874602981
1.45,0.5,0,0.5,0,0,0,10,2,0.2253544582778505,0.07441034869207958,1.466816318910915,-3.958196008122384,1.305778476814885,0.8349417119587419,0.003656005860776232,-0.005628054821004163,-0.03579299606688847,-0.3048251869310554,0.1361153320387221,2,0.7424572308457973,-0.1238593152580263,0.5171710406774939,-0.8385494746098019,0.7363020244009525,-0.5289074913599164,2.113542734210623,0.8952440581240995,3.633339883035534,1.300996197796221,2.115484475126553,4.344564412517628
1.46,0.5,0,0.5,0,0,0,10,2,0.2253871477921087,0.07441439176725408,1.466468386618339,-3.96111975674081,1.30691211747198,0.8117265148417266,0.003268951425821817,0.0004043075174501292,-0.03479322925755638,-0.2923748618425984,0.1133640657095274,-2,0.7424367673468487,-0.1238760959109136,0.5176203404708066,-0.8673055090442472,0.7252492803883687,-0.5510991802879301,2.113395852176446,0.9162909973057715,3.62306632535859,1.326351699642327,2.02906475813228,-3.774308010156062
1.47,0.5,0,0.5,0,0,0,10,2,0.2254171239137135,0.07434628198458064,1.466133921821912,-3.964025692074296,1.308253900960225,0.8318536655335936,0.002997612160480709,-0.006810978267344068,-0.03344647964266848,-0.290593533348568,0.1341783488244095,2,0.7424682242670247,-0.1238892234284533,0.5180449643061756,-0.8461516304314408,0.7364670542876499,-0.5401563109514892,2.114204764139429,0.8962737121857781,3.633681239638745,1.309131382416585,2.11677140426625,4.350405937998212
1.48,0.5,0,0.5,0,0,0,10,2,0.2254436076044289,0.07433873582486039,1.465809573060927,-3.966811593203877,1.309366815324916,0.8087056476135795,0.002648369071537224,-0.0007546159720247265,-0.03243487609858713,-0.2785901129581048,0.1112914364691671,-2,0.7424568081394913,-0.1239073977322969,0.5184696138583595,-0.8745486504074763,0.7251525963834103,-0.5619971924861207,2.11402646057309,0.9173210137575223,3.623155193721422,1.333655402141092,2.030047120112993,-3.768842748744975
1.49,0.5,0,0.5,0,0,0,10,2,0.225467687600112,0.07438917869796499,1.465498768046844,-3.969581002342475,1.310687792717858,0.8289029643914611,0.002407999568308525,0.005044287310459988,-0.03108050140824413,-0.2769409138598975,0.1320977392942224,2,0.7424313449052948,-0.1239367693685532,0.5189366085599124,-0.8532589992170619,0.7364563510693516,-0.5507671018649014,2.114757434734702,0.897400322912248,3.633648294761995,1.316846302768544,2.117993429827737,4.356166197652367
1.5,0.5,0,0.5,0,0,0,10,2,0.2254888185340113,0.07436693334553851,1.465198024033206,-3.972234543646803,1.311777702595853,0.8058228021583193,0.002113093389932128,-0.002224535242648742,-0.03007440136381821,-0.2653541304327035,0.1089909877994677,-2,0.7424294511883361,-0.123955566074841,0.519335287853006,-0.8813063814606585,0.7249040536044162,-0.5722636437487632,2.114654419978053,0.8918294703660167,3.622724137602989,1.34058608844223,2.030828855396163,-3.763258097909202
1.51,0.5,0,0.5,0,0,0,10,2,0.225507935076345,0.07440280180843062,1.464910736886904,-3.974872863217884,1.313075628363355,0.8260907095129846,0.001911654233373958,0.003586846289210335,-0.02872871463019225,-0.2638319571081392,0.12979257675019,2,0.7424132975122931,-0.1239852778200864,0.5197763672593674,-0.8599877494289661,0.736353818156483,-0.5609089020246049,2.115270643726191,0.8987211644010222,3.633127455875234,1.324148878192591,2.119188887800925,4.36202259417318
1.52,0.5,0,0.5,0,0,0,10,2,0.2255244685904436,0.0743661357986459,1.464633361403861,-3.977399547781409,1.314141414421842,0.8030765798084266,0.001653351409854717,-0.003666600978471455,-0.02773754830425744,-0.2526684563525342,0.106578605848741,-2,0.7424199899380004,-0.124004355016698,0.5201496451078408,-0.8876950154394565,0.7245799347113174,-0.5820682788727102,2.115121019998175,0.8931873019933793,3.622018668002323,1.347091745735149,2.031801911940466,-3.757803020320135
1.53,0.5,0,0.5,0,0,0,10,2,0.2255392570723572,0.07438777813354903,1.46436926678772,-3.979912218402369,1.315415195976306,0.8234131855057019,0.001478848191357993,0.002164233490313924,-0.0264094616141353,-0.2512670620959422,0.1273781554463815,2,0.7424122186536958,-0.1240341508032922,0.5205654314892627,-0.8663513995199081,0.7361724757503397,-0.5705952380296851,2.115656512211143,0.9002088577491584,3.632348333035096,1.331062922123275,2.120355523054191,4.367743399301387
1.54,0.5,0,0.5,0,0,0,10,2,0.2255517437918544,0.07433710700888259,1.464114852719222,-3.982317367592376,1.316455875674204,0.8004632034150987,0.001248671949728261,-0.005067112466644795,-0.02544140684982757,-0.2405149190007444,0.1040679697897648,-2,0.7424266044532591,-0.1240533084304805,0.5209139754396883,-0.8937287974206221,0.7241922578457569,-0.5914253780355295,2.115482345512697,0.8946972863902583,3.621077698709485,1.353230746890805,2.032762586959209,-3.752484687303606
1.55,0.5,0,0.5,0,0,0,10,2,0.2255626953252489,0.07434500323760049,1.463873466624556,-3.98470965400736,1.317704559504484,0.820866543694892,0.001095153339442365,0.0007896228717898844,-0.02413860946656712,-0.2392286414983619,0.1248683830279673,2,0.7424263355730164,-0.1240830300186153,0.5213051853984761,-0.8723639914434749,0.7359241277430283,-0.5798400611510776,2.115953613784232,0.9018325950327261,3.63134883771465,1.337607954386349,2.121493400140504,4.373320371486951
1.56,0.5,0,0.5,0,0,0,10,2,0.2255715811623654,0.07428086882302194,1.46364145992784,-3.986998412738152,1.318719283196676,0.7979787699622045,0.0008885837116515446,-0.006413441457855204,-0.02320066967163875,-0.22887587307919,0.1014723692191941,-2,0.7424475697234085,-0.1241021369392661,0.5216297514383003,-0.8994222618975261,0.7237518578887023,-0.6003495001982995,2.115765521843901,0.8963288370230164,3.619937559449215,1.359023370006091,2.033709332906919,-3.747309628231618
1.57,0.5,0,0.5,0,0,0,10,2,0.2255791082681385,0.07427561957814113,1.46342216284181,-3.989275408118167,1.319942050007772,0.8184468191423487,0.0007527105773080108,-0.0005249244880802823,-0.02192970860289995,-0.2276995380014913,0.1222766811096287,2,0.7424539710169378,-0.1241316763180192,0.5219971854260338,-0.8780397989179751,0.7356194238429984,-0.5886576072169771,2.116181612675838,0.903561748404847,3.63016422481281,1.343802647398758,2.122602546114432,4.378746133601881
1.58,0.5,0,0.5,0,0,0,10,2,0.2255847779007084,0.07432854861558197,1.463211884903161,-3.991452749266663,1.320930096098657,0.7956192682755284,0.000566963256994277,0.0052929037440837,-0.02102779386493553,-0.2177341148496408,0.09880460908853794,-2,0.7424151380276187,-0.1241658122869286,0.5223655122239103,-0.904686303090478,0.7232130804147879,-0.6086986545061157,2.11598527657993,0.8980516946757262,3.618631915357286,1.364488857010908,2.034640754112471,-3.74228365259389
1.59,0.5,0,0.5,0,0,0,10,2,0.2255894464737083,0.07430719265756848,1.463013887547653,-3.993619210165033,1.32212525166086,0.8161520647706942,0.0004668572999850326,-0.002135595801348702,-0.01979973555076995,-0.2166460898369783,0.1195155562203094,2,0.7424292233457286,-0.124194503610599,0.5227080678437888,-0.8832888354146958,0.735213395726102,-0.5969078435680064,2.116453430698326,0.8787602381775436,3.628654095813236,1.349698579214829,2.123482270280904,4.384225823809223
1.6,0.5,0,0.5,0,0,0,10,2,0.2255925571247373,0.07434421008547004,1.462824449638443,-3.995689765827582,1.323085077183474,0.7933846456937735,0.0003110651028991525,0.003701742790155973,-0.01894379092099706,-0.2070555662549468,0.09598255226137908,-2,0.7423975496858964,-0.1242277467118255,0.5230520838612202,-0.9096409079341171,0.7226477054091797,-0.6166489972541573,2.116207893459132,0.8999571084537714,3.617035299077583,1.369645999441489,2.035567057905117,-3.737217711357768
1.61,0.5,0,0.5,0,0,0,10,2,0.2255948594387036,0.07430718016435317,1.462646828126438,-3.997750474098565,1.32425213318603,0.8139796851025841,0.0002302313966266985,-0.00370299211168687,-0.01776215120053014,-0.2060708270982585,0.1167056002555835,2,0.7424188456113605,-0.124255353992764,0.5233705254616079,-0.8882319600028207,0.7347768672039103,-0.6047651037680263,2.116604603004971,0.8807900762628192,3.627052031477745,1.355239797120029,2.124537140135349,4.389505525319692
1.62,0.5,0,0.5,0,0,0,10,2,0.2255957932604817,0.07432879028648114,1.462477276372504,-3.99971890472242,1.325183338525229,0.7912699791315603,9.338217781524621e-05,0.002161012212797138,-0.01695517539347095,-0.1968430623855443,0.0931205339198673,-2,0.7423938623159869,-0.1242875470773111,0.523691032383252,-0.9143018619058879,0.7220631531474421,-0.6242171836043174,2.11634074712535,0.9020102103835435,3.615362486501299,1.374511260940049,2.036475432164248,-3.732345256930182
1.63,0.5,0,0.5,0,0,0,10,2,0.2255960392609103,0.07427665889365904,1.462319050199302,-4.001678481165041,1.326321932604057,0.8119247529991986,2.460004285835552e-05,-0.005213139282209487,-0.01582261732013019,-0.1959576442620974,0.1138594078828683,2,0.7424218774752731,-0.1243139724820342,0.523986203847832,-0.8928847659607103,0.734317149910417,-0.6122456626962822,2.116687662079616,0.8829481236371551,3.625383864368158,1.360481080428581,2.125563930011977,4.394583110054143
1.64,0.5,0,0.5,0,0,0,10,2,0.2255950562203451,0.07428349929838804,1.46216838214566,-4.003549286951531,1.327224237331362,0.7892703493614968,-9.830405651603244e-05,0.0006840404728997718,-0.01506680536418594,-0.1870805786489029,0.09023047273049833,-2,0.742403102503728,-0.1243450521467924,0.5242840773946665,-0.9186846990664728,0.7214658737897777,-0.631419481266144,2.116418785530672,0.9041750316428724,3.613637748974323,1.379100948975554,2.03736483878383,-3.727667189191497
1.65,0.5,0,0.5,0,0,0,10,2,0.2275934727239061,0.07421696559188481,1.462028529894516,-4.005412194289885,1.328334124150164,0.8099823591249801,0.1998416503561016,-0.006653370650322062,-0.01398522511438833,-0.1862907338354493,0.1109886818802186,2,0.7426845917923296,-0.1228851402310519,0.5245568919184124,-0.8952625069187879,0.7338406131892398,-0.6193654168966529,2.116726151769549,0.885198870429355,3.623672689566671,1.365438047596495,2.126562575147987,4.399457807676401
1.66,0.5,0,0.5,0,0,0,10,2,0.2287402840177387,0.07420975468604757,1.461895466140325,-4.007184318060813,1.329204726827751,0.7873665850000032,0.1146811293832554,-0.0007210905837244175,-0.01330637541910684,-0.1772123770927624,0.08706026775868025,-2,0.7428127688334395,-0.1220611644804141,0.5248322647808678,-0.9196676147507395,0.7208523172192146,-0.6382746719584802,1.705301009320999,0.906115605979401,3.611128672248017,1.384510569335931,2.037708088778203,-3.724611434295488
1.67,0.5,0,0.5,0,0,0,10,2,0.2293472633618058,0.07425940083631331,1.461772333042608,-4.008946591428138,1.330281816281855,0.8081118192411105,0.06069793440671259,0.004964615026573777,-0.01231330977174708,-0.176227336732536,0.1077089454103513,2,0.7428614402235157,-0.1216469459999213,0.5251493602361271,-0.8975468931271988,0.7332742486958446,-0.6259903258330264,1.86926306299906,0.8870373055125715,3.620812807854324,1.37069277847899,2.127267565757816,4.40197046942888
1.68,0.5,0,0.5,0,0,0,10,2,0.2296144539505098,0.07423523792865309,1.461655233961261,-4.010625167735337,1.331120465861594,0.7855386018356586,0.02671905887039308,-0.002416290766021559,-0.01170990813467408,-0.1678576307198875,0.08386495797388638,-2,0.7428895116372127,-0.121473355346608,0.5254014377426026,-0.9225948811868613,0.7201665305579747,-0.6446465724294997,1.973557913895314,0.8815420981128,3.608680824306708,1.387812898974656,2.038781676959313,-3.721134656822978
1.69,0.5,0,0.5,0,0,0,10,2,0.2296710588436315,0.07426819326673588,1.461547443224522,-4.012297292434576,1.332167180689799,0.8063349348040978,0.005660489312170783,0.0032955338082782,-0.01077907367392005,-0.1672124699239311,0.1046714828205177,2,0.742878901443724,-0.1214650691861076,0.5256958628021065,-0.9010265611105818,0.7327002112752614,-0.6322931525467756,2.040040326126002,0.8893738302109386,3.618781355670373,1.374598412880061,2.128470064037637,4.406301332507482
1.7,0.5,0,0.5,0,0,0,10,2,0.2295993200890609,0.0742276417459482,1.461445131638593,-4.013890374391385,1.332976063011514,0.7838126927187806,-0.00717387545705441,-0.004055152078767791,-0.01023115859286445,-0.1593081956807822,0.08088823217149477,-2,0.7428731954061344,-0.121540505077347,0.5259261100960247,-0.9261791894820833,0.7194880981650585,-0.6507053854901952,2.081559803911832,0.8839812903246144,3.606864887092089,1.391338247963255,2.039772116653155,-3.716778434594939
1.71,0.5,0,0.5,0,0,0,10,2,0.2314523709992982,0.07424455599346122,1.461351627436387,-4.015478775145656,1.333993754040969,0.8046638581150658,0.1853050910237329,0.001691424751301558,-0.009350420220579197,-0.1588400754271601,0.1017691029455778,2,0.7430870546878234,-0.1201947407727278,0.5261991212663795,-0.9028136189337405,0.7321334904361506,-0.6382862430717023,2.107621474969279,0.8919527675696569,3.617138736110967,1.378578433225884,2.129471117689582,4.411047756739713
1.72,0.5,0,0.5,0,0,0,10,2,0.2324130059345,0.07418830379036234,1.461262881185678,-4.016986409650793,1.33477104604338,0.7821791797502405,0.09606349352017239,-0.005625220309887402,-0.008874625070977469,-0.1507634505137232,0.0777292002410459,-2,0.7432125495708022,-0.1195001993378372,0.5264078684584916,-0.9267211749742608,0.7188173680663189,-0.6564679727924069,1.712059973469285,0.8863006391386397,3.604545547132264,1.395897742039711,2.040094283646126,-3.713720484239394
1.73,0.5,0,0.5,0,0,0,10,2,0.2328139190168766,0.07418987357260484,1.461182126278471,-4.018487657600995,1.335756232931759,0.803062571598785,0.04009130823766546,0.000156978224250261,-0.00807549072064509,-0.1501247950201646,0.09851868883790016,2,0.7432578826185029,-0.1192303610716961,0.5266593167655276,-0.9048276047545694,0.7315575708725759,-0.6439923601012771,1.885165509693808,0.8941933798240146,3.614531114627036,1.383013519170683,2.130106687465223,4.413571860106739
1.74,0.5,0,0.5,0,0,0,10,2,0.2328683499673023,0.07411868505055931,1.461105511224366,-4.019915066683196,1.336503153872661,0.7806176725544121,0.005443095042569068,-0.007118852204553654,-0.007661505410502928,-0.1427409082200871,0.07469209409025201,-2,0.7432818492220763,-0.1192065625265941,0.526847770655144,-0.9294354830444294,0.7181470198294856,-0.6619528796323242,1.994605510007506,0.888745192363766,3.602556937114923,1.398483688154955,2.041321082070346,-3.710412944347301
1.75,0.5,0,0.5,0,0,0,10,2,0.2327134300192378,0.07410577513554803,1.461036401145084,-4.021339342073584,1.337459621913705,0.8015490947463201,-0.01549199480645592,-0.001290991501127933,-0.006911007928215478,-0.1424275390387966,0.09564680410434723,2,0.7432677808654395,-0.1193472090363361,0.5270796421837477,-0.9081036868120711,0.7309897136006037,-0.6494210908106274,2.063553989304038,0.896820485451487,3.612956005294236,1.386221677239119,2.131221030814904,4.417706083753854
1.76,0.5,0,0.5,0,0,0,10,2,0.2344362732360462,0.07415046422531625,1.460971012257665,-4.022694029240905,1.33817854177602,0.7791522528270513,0.1722843216808455,0.004468908976822219,-0.0065388887419111,-0.1354687167321635,0.07189198623153792,-2,0.7434296657964189,-0.1180965686705029,0.5273162822200773,-0.9307345408213609,0.717446504184906,-0.6670099808008162,2.106021314577874,0.8914227157669691,3.601196663258908,1.401384262646755,2.042232414977775,-3.706241884905683
1.77,0.5,0,0.5,0,0,0,10,2,0.2352424313835701,0.07412037488663467,1.460912466815607,-4.024041861108246,1.339104013024714,0.8001228182328123,0.08061581475238398,-0.00300893386815732,-0.005854544205756684,-0.1347831867340366,0.09254712486937766,2,0.7435375055577155,-0.1175196417884484,0.5275271868065819,-0.9084565425737902,0.7303828879331802,-0.6544296387337031,1.72091341339245,0.8726870644308984,3.610847611734965,1.390614921353417,2.131374725926885,4.42099180811528
1.78,0.5,0,0.5,0,0,0,10,2,0.2354777422326592,0.07414817415217712,1.46085688656215,-4.025320401177199,1.339790821616648,0.7777547456409696,0.02353108490891601,0.00277992655424452,-0.00555802534568881,-0.1278540068953034,0.0686808591933783,-2,0.7435308859934427,-0.1173717693407743,0.5277430815103665,-0.9324007800686042,0.7167579844920206,-0.6718222369186091,1.899500046557593,0.8938390394352919,3.59879989862016,1.404867576305062,2.042745504504195,-3.703963947836569
1.79,0.5,0,0.5,0,0,0,10,2,0.2353646559029203,0.0741015499753328,1.460807610013152,-4.026596883383695,1.340686821202588,0.7987667650376161,-0.01130863297389188,-0.004662417684430699,-0.004927654899785909,-0.1276482206495878,0.08959995859403369,2,0.7435387648167444,-0.1174753188833816,0.5279341702165196,-0.9110550129364668,0.729787353869334,-0.6591967661373963,2.012379268424492,0.8753912178041396,3.609125440413503,1.393092716595522,2.132622118372083,4.424536893413495
1.8,0.5,0,0.5,0,0,0,10,2,0.2370448601441167,0.0741132135597766,1.460760880874311,-4.027809046110327,1.341345571529238,0.7764431780293277,0.1680204241196405,0.001166358444379325,-0.00467291388411831,-0.1212162726632069,0.06587503266501105,-2,0.7437087318799407,-0.1162502164490903,0.528131213531023,-0.9333744577563988,0.7160973991918462,-0.6763993528533814,2.082428193239659,0.8966721944849813,3.597459766473353,1.407211679302236,2.043731777978345,-3.700085709927659
1.81,0.5,0,0.5,0,0,0,10,2,0.2377587235326648,0.07405086038967684,1.460719884662883,-4.029016206041852,1.342211896386177,0.7974898852469158,0.07138633885480367,-0.006235317009975242,-0.004099621142796947,-0.1207159931525921,0.08663248569389936,2,0.7438207642760614,-0.1157357813683696,0.5283032161444968,-0.9112203327640861,0.7292131219193392,-0.6637332961452279,1.714421396523252,0.8780763419512317,3.607314793615339,1.396928598089246,2.132987969106829,4.427441525853171
1.82,0.5,0,0.5,0,0,0,10,2,0.237874294008395,0.07404721090439291,1.460680787544109,-4.030159500901926,1.342840086525848,0.7751918174885678,0.01155704757302262,-0.0003649485283937675,-0.003909711877390723,-0.1143294860073605,0.06281901396704859,-2,0.7438156742045257,-0.1156713411913139,0.5284814842381218,-0.9349489074289209,0.7154517284215991,-0.6807591505929881,1.903461136444412,0.899227605067628,3.595412285566011,1.410272456663521,2.04422813489469,-3.698071533776739
1.83,0.5,0,0.5,0,0,0,10,2,0.2376279473535894,0.07409988914779335,1.460646995531517,-4.031302634443761,1.343678627127319,0.7962771453672853,-0.02463466548055907,0.005267824340043806,-0.003379201259280343,-0.1143133541834009,0.08385406014709118,2,0.7437573765222059,-0.1158844706508147,0.5287025801873808,-0.9136638843548643,0.7286012538440509,-0.6678957272072563,2.022460971058943,0.8808861464250098,3.605954117349796,1.399017827462807,2.134201289875334,4.430764661454292
1.84,0.5,0,0.5,0,0,0,10,2,0.2391703431308902,0.07407824222897037,1.460614742961919,-4.03238654000857,1.344279529963338,0.7740234523616544,0.1542395777300831,-0.002164691882297049,-0.003225256959786033,-0.1083905564809621,0.06009028360192015,-2,0.7439258279254545,-0.1147556687477836,0.5288620932541802,-0.9358055712599479,0.7147908289487124,-0.6847526212318811,2.096060009931497,0.8755314781715826,3.594266027509643,1.412314981342358,2.044971058933976,-3.694145447054971
1.85,0.5,0,0.5,0,0,0,10,2,0.2397470890555673,0.0741132419199188,1.460587287068068,-4.033467372891718,1.345089189346844,0.7951429845888278,0.05767459246770922,0.003499969094842645,-0.002745589385071331,-0.1080832883148365,0.08096593835056187,2,0.743971357974069,-0.114353391091754,0.5290641578563957,-0.9137167476564316,0.7280216973977348,-0.67185687241297,1.729698477092226,0.8837377366649134,3.604349573051171,1.40248893302037,2.134512394334183,4.433681313024179
1.86,0.5,0,0.5,0,0,0,10,2,0.2397296208124133,0.07407425165913464,1.460560787867984,-4.034489235720188,1.345660396098713,0.7729143238839589,-0.001746824315404662,-0.003899026078415445,-0.0026499200083872,-0.1021862828470024,0.05712067518691333,-2,0.743969106154331,-0.1143817676163554,0.5292048851329704,-0.9372824754339744,0.7141546412980767,-0.6885581389560109,1.919466644931166,0.8782830856946959,3.592433813402753,1.415067561448587,2.045423134790186,-3.692121044189994
1.87,0.5,0,0.5,0,0,0,10,2,0.2413559585094267,0.0740923071182389,1.460538720947392,-4.035512734285351,1.346443166113181,0.7940715567097666,0.1626337697013415,0.001805545910425433,-0.002206692059215426,-0.1023498565163199,0.07827700144684169,2,0.7441426100538261,-0.1131954499902461,0.5293891076890184,-0.9141597982298932,0.7274671519174609,-0.6756322100172634,2.038354032719066,0.8867599332891467,3.603196722568362,1.404267496986352,2.135674306151765,4.436972598995409
1.88,0.5,0,0.5,0,0,0,10,2,0.241927352016885,0.07403678075836949,1.460517138843183,-4.036476843027248,1.346986270182658,0.7718695029837956,0.05713935074583423,-0.005552635986940811,-0.002158210420860258,-0.09641087418963001,0.05431040694774647,-2,0.7442157841415039,-0.1127825946799151,0.5295121564403596,-0.9370059535567569,0.7135489914636368,-0.6921858519119798,1.700397252302842,0.881158414589826,3.59095008614221,1.417794137968707,2.045767305129804,-3.689913197500388
1.89,0.5,0,0.5,0,0,0,10,2,0.2418512682731163,0.0740387302948862,1.460499480430289,-4.037441888665652,1.347740707879902,0.793050087040887,-0.007608374376877086,0.0001949536516701687,-0.001765841289477466,-0.09650456384040829,0.0754437697243957,2,0.7442045593801596,-0.1128599360892592,0.5296788382182335,-0.9156134973660447,0.7269318108881183,-0.6792355301559034,1.908141310235046,0.8895938661190338,3.601601304538244,1.406972100921787,2.136201633307577,4.438856233655619
1.9,0.5,0,0.5,0,0,0,10,2,0.2433883004823388,0.07396758174951615,1.460482021443531,-4.038353924223758,1.348258302593323,0.770881345807893,0.1537032209222564,-0.00711485453700479,-0.0017458986757961,-0.09120355581064288,0.05175947134208103,-2,0.7443942312268982,-0.1117254295285214,0.5297855967540579,-0.9373632171696809,0.7129709771639444,-0.6956476128492467,2.037903916115287,0.8841991250155504,3.590048476910828,1.419004515362763,2.046891013050907,-3.687014143949706
1.91,0.5,0,0.5,0,0,0,10,2,0.2438543802924194,0.07395440461779822,1.460468109365387,-4.039265167126852,1.348986334350854,0.7920886053441463,0.04660798100805956,-0.001317713171793159,-0.001391207814372102,-0.09112429030941926,0.0728031757530776,2,0.7444520444328746,-0.1113962892131349,0.5299359836572212,-0.9154525054448409,0.7264242770788442,-0.6826741627525967,1.706655502448135,0.8925258167984873,3.600418151713817,1.409734393443933,2.136569162389572,4.441096355978249
1.92,0.5,0,0.5,0,0,0,10,2,0.2436658599488396,0.07399850606545215,1.460453977407091,-4.040124115859941,1.34947713307605,0.7699398889640598,-0.018852034357981,0.004410144765393771,-0.001413195829601974,-0.08589487330887891,0.04907987251960799,-2,0.7443895283364927,-0.1115599025821589,0.5300936994981079,-0.9387103397655583,0.7123665909826498,-0.6987959123381651,1.918101418683219,0.8870227468379422,3.588735112727673,1.421205702690425,2.047346748196231,-3.685418882581748
1.93,0.5,0,0.5,0,0,0,10,2,0.2450893128350645,0.07396759871078765,1.460443145394913,-4.04098700891511,1.350180395392095,0.7911832258651551,0.1423452886224891,-0.003090735466450076,-0.001083201217818988,-0.08628930551690817,0.07032623160445883,2,0.7445631205384234,-0.110514816157806,0.5302272684723378,-0.915858064130613,0.7258939224763473,-0.6858015262334909,2.050065587287825,0.8689729957490707,3.599640484852416,1.411060584563756,2.137495570326043,4.4442964851741
1.94,0.5,0,0.5,0,0,0,10,2,0.2454438545491391,0.07399433724549495,1.460431750280518,-4.041797166532309,1.350645366310133,0.7690602094095832,0.03545417140746268,0.002673853470730996,-0.001139511439540724,-0.08101576171989466,0.04649709180382922,-2,0.744570338449948,-0.1102710383366513,0.5303682963887432,-0.9384646261616137,0.7118004925354291,-0.7018009785823699,1.719607771627532,0.8900194964020384,3.587660367087429,1.423502982534684,2.04764396449109,-3.683232715579551
1.95,0.5,0,0.5,0,0,0,10,2,0.2451481001419651,0.07394645953119004,1.460423277382294,-4.042610607124453,1.35132260569026,0.7903258257876494,-0.02957544071740763,-0.004787771430491466,-0.0008472898223559038,-0.08134405921440169,0.06772393801273546,2,0.7445628264438183,-0.1105026968595894,0.5304852995274111,-0.9173587295963641,0.7253911080547174,-0.6887908870838088,1.931401572018232,0.8719424287317055,3.598459943012458,1.413337032702302,2.137953368586535,4.446143235892312
1.96,0.5,0,0.5,0,0,0,10,2,0.2464692777480201,0.0739566761112215,1.460414082663567,-4.043377321217017,1.351764457328391,0.7682353084706639,0.1321177606055025,0.001021658003146375,-0.0009194718727482782,-0.07667140925642935,0.04418516381308546,-2,0.7446854121079068,-0.109536176398166,0.5306109374047856,-0.9388893464369957,0.711269415555515,-0.7046733075190483,2.062941634048458,0.8932023088874169,3.587159777329608,1.424379799725945,2.048708958367947,-3.680346611096492
1.97,0.5,0,0.5,0,0,0,10,2,0.2467273456455986,0.07389273925369506,1.460407556930008,-4.044145530012673,1.352417638750967,0.789526283476279,0.02580678975785809,-0.006393685752643592,-0.0006525733558277349,-0.07682087956559147,0.06531814225765009,2,0.7447479129699788,-0.1093523982630917,0.5307125140030041,-0.9172529132518752,0.7249235835202033,-0.6916483002375424,1.732184462672382,0.8750252189848116,3.597667311493419,1.415715662136028,2.138239131993089,4.448321344229885
1.98,0.5,0,0.5,0,0,0,10,2,0.2463407377319949,0.07388737362923471,1.460400010088011,-4.044867430605173,1.35283503964062,0.7674544541086522,-0.03866079136037012,-0.0005365624460350491,-0.0007546841997539195,-0.0721900592499598,0.04174008896521464,-2,0.744691693108867,-0.1096546648724608,0.5308230526924382,-0.9403987138396992,0.7107672803866391,-0.7074231214472927,1.943210544840115,0.8961888329310008,3.586225208162267,1.42625730427787,2.049092338940155,-3.678817359484748
1.99,0.5,0,0.5,0,0,0,10,2,0.2475769310744935,0.07393825668575058,1.460395051563527,-4.045595486671496,1.35346680612408,0.78877746956863,0.1236193342498529,0.005088305651586768,-0.0004958524484103724,-0.07280560663230518,0.06317664834599168,2,0.7448026526788373,-0.1087564707816363,0.5309773881748142,-0.9176946921703532,0.7244364370936422,-0.6942235635642912,2.074238796986845,0.8782366730292798,3.597411175079809,1.416685620987518,2.139297045981498,4.451186475147676
2,0.5,0,0.5,0,0,0,10,2,0.2477556183469508,0.07391470568395719,1.460388830928601,-4.046276341943313,1.353860639691574,0.7667297042404044,0.01786872724572858,-0.002355100179338693,-0.0006220634925358657,-0.06808552718181804,0.03938335674948834,-2,0.7448182976360278,-0.1086345375715844,0.531072021460547,-0.9401871308781015,0.7102560789523351,-0.7098988297920842,1.742750433216389,0.8726292592012904,3.585472710619176,1.42828492637194,2.049102319772167,-3.676729204264544
2.01,0.5,0,0.5,0,0,0,10,2,0.2472951754270816,0.07394775869876337,1.460384917371898,-4.04696257028895,1.354468586290215,0.7880728186841661,-0.04604429198691638,0.00330530148061769,-0.0003913556703009168,-0.0686228345636255,0.06079465986400567,2,0.7447542466523838,-0.108996702501268,0.5312105288678119,-0.9192065821284923,0.7239815268644748,-0.6966906997415279,1.953190686093683,0.8813217353516654,3.596534513398091,1.418637261220126,2.13967630797838,4.452881581517347
2.02,0.5,0,0.5,0,0,0,10,2,0.2484626729826265,0.0739067908666635,1.460379672538018,-4.047607215978616,1.354841515219794,0.7660554180689628,0.116749755554492,-0.004096783209986791,-0.0005244833880437318,-0.06446456896657471,0.03729289295794747,-2,0.7448869145980288,-0.1081352440648458,0.5312904357086571,-0.9406206003197254,0.7097834513958219,-0.712270982657728,2.08349893139591,0.8759323091473429,3.585253924219272,1.428901598858028,2.050103984216746,-3.673992431434755
2.03,0.5,0,0.5,0,0,0,10,2,0.2485774436587338,0.0739228568961653,1.460376566240828,-4.04825534603486,1.355427561973101,0.7874212621237721,0.01147706761072778,0.001606602950179365,-0.0003106297189751172,-0.06481300562448566,0.0586046753306777,2,0.7448950017445181,-0.1080659284809198,0.5314141435571365,-0.9190881032538948,0.7235654099242118,-0.6990548020718668,1.751347117216521,0.8845304848733394,3.596008085660092,1.420707778975563,2.139886432756033,4.454861471871827
2.04,0.5,0,0.5,0,0,0,10,2,0.2480575419876201,0.0738653489654208,1.460371910274283,-4.04886202697528,1.355778184192124,0.7654199504599135,-0.05199016711137254,-0.005750793074450199,-0.0004655966545298908,-0.06066809404187867,0.03506222190235064,-2,0.7448540504109235,-0.1084583042705605,0.5314795163905331,-0.9421161225997776,0.7093421353532282,-0.7145488378812095,1.961178569563239,0.8790553888795222,3.584573307444022,1.430517810733576,2.050421555899627,-3.672660841961243
2.05,0.5,0,0.5,0,0,0,10,2,0.24916968740065,0.07386537832659539,1.46036938623348,-4.049476673738212,1.356344940714211,0.7868148652426775,0.1112145413029983,2.936117459094792e-06,-0.0002524040802811525,-0.06146467629325336,0.05667565220864135,2,0.7449789758078644,-0.107643163138356,0.5315896554575761,-0.9196026463566354,0.7231832998128509,-0.7013240852682432,2.09089520094604,0.8878777639761204,3.59598424446882,1.421404887058869,2.140878750552953,4.457492171890308
2.06,0.5,0,0.5,0,0,0,10,2,0.2492329748849858,0.07379234361242264,1.460365197601899,-4.050048889920094,1.356675118197551,0.7648324469187479,0.006328748433576503,-0.007303471417275399,-0.0004188631581340277,-0.0572216181882127,0.03301774833407412,-2,0.7450099418567298,-0.1075983111546349,0.5316415644206639,-0.9419748021485012,0.7089383598056204,-0.7167361029560794,1.758235196788113,0.8822476109115381,3.584213954783544,1.432263733652872,2.050570661826336,-3.671029756492473
2.07,0.5,0,0.5,0,0,0,10,2,0.2486651254962017,0.07377737171222787,1.460362976957335,-4.050628166125943,1.357221114153209,0.7862421889860465,-0.05678493887840724,-0.001497190019477434,-0.000222064456411441,-0.05792762058484269,0.05459959556576721,2,0.7449621502673155,-0.1080318710324767,0.53173837863381,-0.9211689175275782,0.7228278507879237,-0.7035067221828827,1.967539096654182,0.8909921402314509,3.595473139585626,1.423090811794588,2.141186542958822,4.458719237568003
2.08,0.5,0,0.5,0,0,0,10,2,0.2497326794692062,0.0738197777131689,1.460359130240877,-4.051170323536057,1.357533400007377,0.7642851958972618,0.1067553973004428,0.004240600094103287,-0.0003846716457789386,-0.0542157410113403,0.03122858541675577,-2,0.7450424605460703,-0.1072533017973167,0.5318449401818026,-0.9423576696869316,0.7085190087105322,-0.7186805078831101,2.096830785835164,0.885527147195869,3.584330599271969,1.432660180614439,2.051505896353967,-3.668731265006948
2.09,0.5,0,0.5,0,0,0,10,2,0.2497546095965884,0.07378728267541643,1.460357127630856,-4.051717400177188,1.358059409479652,0.7857148982571519,0.002193012738222949,-0.003249503775247459,-0.0002002610021190691,-0.05470766411313321,0.05260094722754749,2,0.745068045152387,-0.1072444114027949,0.5319275680244325,-0.9209846933018164,0.7224580591697692,-0.7054480728612511,1.763796131553135,0.8675207580775658,3.595086493090043,1.424938678230404,2.141121115046305,4.460476990951527
2.1,0.5,0,0.5,0,0,0,10,2,0.2491484326823583,0.07381255491009998,1.460353323077797,-4.052227255085387,1.358351291828915,0.7637713347361708,-0.06061769142300419,0.002527223468355862,-0.0003804553059120285,-0.05098549081989379,0.02918823492629086,-2,0.7449779046861611,-0.1077098006418945,0.5320201413681594,-0.9437900016974444,0.7081313497079331,-0.7205532230076952,1.972708147861179,0.8886518513482948,3.58378287601375,1.434058714859202,2.051766949194044,-3.667613124142205
2.11,0.5,0,0.5,0,0,0,10,2,0.250180510345369,0.07376337383613041,1.460351394391551,-4.05274638370913,1.358859897194293,0.7852271968150956,0.103207766301072,-0.004918107396956919,-0.0001928686245533427,-0.05191286237432124,0.05086053653783629,2,0.7451212242918202,-0.106945435533646,0.5320897016387491,-0.921422913633972,0.7221228250756035,-0.707317115350995,2.101642544326606,0.8708760574392796,3.595182445645598,1.425403959397731,2.14205659889183,4.462869111267174
2.12,0.5,0,0.5,0,0,0,10,2,0.2501694413864228,0.07377241726620219,1.46034758566629,-4.053227093857464,1.359133210632799,0.7632997471510534,-0.001106895894622761,0.0009043430071782729,-0.00038087252613831,-0.04807101483332055,0.02733134385061153,-2,0.7451041300816654,-0.106964660345164,0.532169253320984,-0.9435761037075928,0.7077811610337418,-0.7223572524942999,1.768171500777321,0.8918672617565994,3.583538305708376,1.435598016951784,2.051861665039386,-3.666209780680675
2.13,0.5,0,0.5,0,0,0,10,2,0.2515326356148232,0.07370748265377047,1.460345523235028,-4.053716101771359,1.359622899477646,0.7847674121693804,0.1363194228400386,-0.00649346124317174,-0.0002062431262010551,-0.04890079138953651,0.04896888448471315,2,0.7452907588029355,-0.1059505389964926,0.5322258930746891,-0.9209053008866971,0.7218143127973154,-0.7091213137346908,1.976798879058397,0.8740231217904516,3.594778295263275,1.4268614773424,2.142306732862938,4.463843872151113
2.14,0.5,0,0.5,0,0,0,10,2,0.2516859773475153,0.0737012652315686,1.460341430555182,-4.054167134566439,1.35987728450498,0.7628477249185996,0.01533417326920886,-0.0006217422201868269,-0.0004092679846096731,-0.04510327950800697,0.02543850273334569,-2,0.7452998002088057,-0.1058445169848215,0.5322928647142086,-0.9428463974828404,0.707453064695967,-0.7241018764815593,1.694287121504844,0.8949473132503798,3.583070123656163,1.436732849364199,2.052170486357058,-3.665629765831522
2.15,0.5,0,0.5,0,0,0,10,2,0.2511094067418169,0.07375145394183735,1.460338936746193,-4.054626542263301,1.360348406317402,0.7843225285887282,-0.05765706056983717,0.00501887102687525,-0.0002493808988378891,-0.04594076968613314,0.04711218124216132,2,0.745221735803532,-0.1062904109711821,0.5324040702721152,-0.9220404246402997,0.7214733201302673,-0.7107083698632948,1.935330802363051,0.877072782769216,3.594318628561496,1.428031396273822,2.142682115040378,4.464360644421888
