ESOGU-SRLAB/Model-Based-Digital-Twin-Functional-Mockup-Unit/Cobot_Ur10e/UR10e_FK/temp/ur10e_FK_outs.csv
"time","q1","q2","q3","q4","q5","q6","x","y","z","roll","pitch","yaw","qx","qy","qz","qw"
0,-0.6929999999999999,-0.833,0.951,1.149,1.515,1.739,-1.185,-0.291,0.06100000000000001,1.570796326794897,-0,0,0.7071067811865475,0,0,0.7071067811865476
1,-0.6929999999999999,-0.833,0.951,1.149,1.515,1.739,-0.8083451942641048,0.4365924737351684,0.419885571915271,-3.034373895143241,-0.2900649314732335,2.273257441461379,-0.4086153648931579,-0.8996637523874013,-0.01260582531590966,0.1532309021756283
2,-0.6929999999999999,-0.833,0.951,1.149,1.515,1.739,-0.8083451942641048,0.4365924737351684,0.419885571915271,-3.034373895143241,-0.2900649314732335,2.273257441461379,-0.4086153648931579,-0.8996637523874013,-0.01260582531590966,0.1532309021756283
3,-0.695,-0.83,0.946,1.15,1.515,1.74,-0.8087298967563941,0.4392584348328367,0.4197032057160548,-3.033894031275697,-0.2909422525145136,2.270167418335493,-0.4099201580819141,-0.8989868018920959,-0.01281286946595537,0.1537010878229832
4,-0.722,-0.8,0.879,1.165,1.508,1.749,-0.8111432211595906,0.4726695697789353,0.4264875648129203,-3.020109127646265,-0.3103496377427141,2.23271860356478,-0.4244526325711692,-0.8901934663145955,-0.01382879887132698,0.1649373200824646
5,-0.726,-0.795,0.87,1.167,1.507,1.751,-0.8113168104137901,0.4775925029138152,0.4264828628407398,-3.018101266103059,-0.3118931383104547,2.226536183652843,-0.4269416925214276,-0.8888048043836673,-0.01378897748094822,0.1660020330944164
6,-0.717,-0.806,0.894,1.161,1.509,1.747,-0.8105419328389555,0.4661872335196121,0.4242878514583654,-3.022687390963071,-0.3058504110355292,2.240073897198762,-0.4216572965244694,-0.8919832582183688,-0.01338650885212732,0.162455509991414
7,-0.668,-0.857,1.004,1.138,1.521,1.732,-0.8061489092364817,0.4069979579045014,0.4146284492671616,-3.045476550395755,-0.2740174121564154,2.306293285835828,-0.3953510622711648,-0.907095152110825,-0.0118360699061117,0.1439994098157291
8,-0.551,-0.931,1.179,1.116,1.546,1.715,-0.7972648609211839,0.2822750817823611,0.3932418727331288,-3.086945318522941,-0.2010592316411368,2.443448566043275,-0.3375955920671387,-0.9355349542005295,-0.008770061227360224,0.1035695501193263
9,-0.448,-0.963,1.273,1.117,1.561,1.716,-0.7904282709579663,0.185549664381843,0.3767402794191165,-3.110956627491965,-0.1408557379688324,2.546933167395485,-0.2911770175300558,-0.9539558457330843,-0.00600463838519322,0.07175049248500333
10,-0.308,-0.975,1.346,1.135,1.571,1.733,-0.7816541006090565,0.06609522036188373,0.3564794557942167,-3.131315170011721,-0.06397751852628832,2.671053500412079,-0.2328229865951682,-0.9719795125257485,-0.002460775414106399,0.0322990514949841
11,-0.229,-0.969,1.365,1.152,1.572,1.747,-0.7771580629064438,0.002627205278587389,0.3459651949752176,-3.138780958803991,-0.02265428918451439,2.736343410268454,-0.2012122406682939,-0.9794811685731433,-0.0009024368644258453,0.01137805886520135
12,-0.288,-0.968,1.379,1.153,1.57,1.746,-0.7711497025517999,0.04687089521811776,0.3396190458428647,-3.139623842614607,-0.006553474142756457,2.678385235142734,-0.2295342244774264,-0.9732945770901519,0.000205979821630466,0.003415197324005989
13,-0.371,-0.961,1.377,1.155,1.57,1.743,-0.7660585986584434,0.1112053459353648,0.3353922569709954,-3.140843004997935,0.0003371144315999984,2.598389025648157,0.2682749137312506,0.9633423076755827,-0.0004063037881729309,6.182236408808307e-05
14,-0.488,-0.9360000000000001,1.349,1.167,1.57,1.743,-0.7585231659745488,0.2055404729617522,0.3291151299963131,3.14080007287831,0.009203996549302545,2.481381668311828,0.3241376439823739,0.9459986535273491,-0.001116809420290689,0.004481965497071589
15,-0.591,-0.896,1.295,1.191,1.571,1.75,-0.7511223043679836,0.294493825791493,0.3227569115715382,3.137968857965473,0.01885980393656596,2.371356762993821,0.375635292061578,0.9267178235882685,-0.001863350093778918,0.009419698937012957
16,-0.651,-0.876,1.245,1.214,1.572,1.748,-0.7453490735871846,0.3492353232549467,0.3300594315791287,3.138256496993387,0.01180038019458567,2.313376640889164,0.4023569185816031,0.9154623509142218,-0.0008470053254775223,0.006072619706692281
17,-0.763,-0.8169999999999999,1.103,1.275,1.571,1.75,-0.7341956194570033,0.461312760053111,0.3483949418343408,-3.140046853887566,-0.009675746894645145,2.199380504308902,-0.4538633703676922,-0.891057820152815,-0.001507069516023153,0.004661643966076164
18,-0.76,-0.825,1.095,1.289,1.571,1.75,-0.7349668733700324,0.4585289159896624,0.3603000251472258,-3.139690321157335,-0.01164371511006129,2.202376703835999,-0.4525239215280981,-0.8917327526489112,-0.001786404385286111,0.005622015421519124
19,-0.708,-0.885,1.084,1.359,1.571,1.748,-0.7439833346595028,0.4078749229181317,0.4238057488313213,-3.139537309668013,-0.01263183462550315,2.256374695673013,-0.4282838568945789,-0.9036215975824142,-0.001776454390806333,0.006147399117230393
20,-0.668,-0.921,1.061,1.417,1.571,1.749,-0.7506581746343942,0.3706641204841563,0.4706118857115624,-3.139347385701877,-0.01361393391842546,2.295372291684546,-0.4105816091394621,-0.911797756063946,-0.001771294025769814,0.006667592569812295
21,-0.639,-0.928,0.995,1.435,1.562,1.747,-0.7678093873977901,0.3524226336006066,0.5083959979299567,-3.120856212011659,-0.06618773258416667,2.326005154981037,-0.3960315810859136,-0.9175821062913945,-0.003608804686887963,0.03448248142421702
22,-0.661,-0.9,0.969,1.372,1.551,1.745,-0.7775051029633945,0.3813118331839553,0.4902177476978546,-3.099489860639785,-0.1243916634703503,2.305053188304393,-0.4041091889801112,-0.9123556078184755,-0.006042813789981747,0.0653183945417861
23,-0.725,-0.797,0.872,1.17,1.508,1.75,-0.8107277147621195,0.475992270861609,0.4275618027345217,-3.019986966285932,-0.3092458936461641,2.228735991607761,-0.42628156226054,-0.8894090324654449,-0.01385836741270413,0.1644492271135659
24,-0.676,-0.85,0.988,1.141,1.52,1.734,-0.8067160210715715,0.4163713031654154,0.4164187028377516,-3.042882805200168,-0.2795772268079477,2.295954514405418,-0.3995668330848448,-0.9047613016223763,-0.01255222438854532,0.1469550089246053
25,-0.591,-0.911,1.129,1.12,1.538,1.718,-0.8002802601313158,0.3228302277606612,0.4001644738134488,-3.074446427589674,-0.225429072910455,2.399620695117854,-0.3565124084825692,-0.9269033523198106,-0.009668703312087624,0.1168571531080473
26,-0.542,-0.9350000000000001,1.189,1.116,1.547,1.714,-0.7965816992352041,0.2733032418296428,0.3919376863002573,-3.089027660524259,-0.1953201307694245,2.45363520147149,-0.3331003052476644,-0.9374750673688518,-0.008248604862457595,0.1005815352015611
27,-0.391,-0.972,1.309,1.122,1.566,1.722,-0.7868683442753447,0.1355552640356294,0.3685550965303918,-3.119944015952596,-0.1097932090452628,2.59846768804554,-0.267245069284808,-0.9620046808759553,-0.004305314915314391,0.05575420324235354
28,-0.229,-0.969,1.365,1.152,1.572,1.747,-0.7771580629064438,0.002627205278587389,0.3459651949752176,-3.138780958803991,-0.02265428918451439,2.736343410268454,-0.2012122406682939,-0.9794811685731433,-0.0009024368644258453,0.01137805886520135
29,-0.213,-0.966,1.368,1.157,1.571,1.751,-0.7760222716397215,-0.01016006112345111,0.343056863323517,-3.139678677890426,-0.01164180695699414,2.748376637875872,-0.195334954099642,-0.9807188472793124,-0.0001985352909591025,0.005895666354688929
30,-0.319,-0.966,1.38,1.153,1.57,1.745,-0.7692964038937826,0.07074027069388721,0.3377090299502863,-3.140150382530749,-0.003600846238624154,2.648387895243545,-0.2441088223840265,-0.9697459055244251,0.0002598162105567858,0.001921990747421084
31,-0.462,-0.9429999999999999,1.359,1.163,1.57,1.742,-0.7599946010868112,0.1839512397582988,0.3299559390167112,3.140979658966395,0.008219405224723593,2.508383194723936,0.3113380017414906,0.9502903057348918,-0.0009882574090037404,0.004000855557865256
32,-0.502,-0.9320000000000001,1.344,1.17,1.57,1.743,-0.7572975988911623,0.2170868445106771,0.3284235125602433,3.140457329607194,0.0111744125672357,2.467378176089227,0.3307503274440167,0.9437015853152237,-0.001312303277497613,0.005460460540755695
33,-0.607,-0.89,1.284,1.197,1.571,1.75,-0.7494807290768898,0.3086724295634201,0.3232109177234952,3.137790545130741,0.0198437838353428,2.35535331253554,0.3830350014036,0.9236785878754464,-0.002044778007811727,0.009893072478456106
34,-0.666,-0.87,1.23,1.22,1.572,1.747,-0.7439588508203901,0.3634654453034947,0.3321422422680949,3.138794235510881,0.008850166634471506,2.299382136209807,0.4087593503363881,0.9126304041450911,-0.0005318729899589159,0.004610428793964833
35,-0.768,-0.8139999999999999,1.095,1.279,1.571,1.751,-0.7335034508255603,0.4665459859899854,0.3497613431911763,-3.139857930137261,-0.01065800177861052,2.193378636480118,-0.4565333675714819,-0.8896899089226179,-0.001661230328140548,0.005137175187094534
36,-0.746,-0.842,1.094,1.307,1.571,1.749,-0.7375996609950404,0.4447621248094718,0.3772530281699705,-3.139701966327088,-0.01164561161892996,2.217376769840432,-0.4458232614073801,-0.895101570376267,-0.001749823804710258,0.005633508203600765
37,-0.664,-0.924,1.058,1.423,1.571,1.749,-0.7513495111496032,0.3670439979111551,0.475122164947114,-3.139347385701877,-0.0136139339184254,2.299372291684546,-0.4087571936801198,-0.9126170951398785,-0.001757955306933428,0.006671121820321394
38,-0.619,-0.953,1.016,1.49,1.571,1.751,-0.7590606043627649,0.3271456250712766,0.5255620902480864,-3.138603066026135,-0.01754462906553914,2.34236094172469,-0.3890370094878002,-0.9211791463431803,-0.002035982264226293,0.008662584340636855
39,-0.663,-0.896,0.966,1.365,1.55,1.745,-0.778916204430857,0.3844163875366162,0.4875007274689813,-3.097449197935915,-0.1301262297087953,2.302926601914487,-0.4048803160502256,-0.911790396254196,-0.006350240611976441,0.06833650135802789
40,-0.706,-0.831,0.905,1.233,1.523,1.746,-0.8000938454171447,0.4461542512652735,0.447362702669194,-3.047636641383928,-0.2513539661872205,2.254851956510627,-0.4198162045748585,-0.8977230203926554,-0.01162700009710143,0.1330884889920635
41,-0.674,-0.852,0.992,1.141,1.52,1.733,-0.8064743184130035,0.4139000773077615,0.4162568735424341,-3.043517541695265,-0.2777039777527166,2.2990858787043,-0.3982910138958191,-0.9054817947398373,-0.01222482282629238,0.1460052785053666
42,-0.639,-0.88,1.056,1.13,1.528,1.725,-0.8039060029093646,0.3742881480081608,0.4090856730047594,-3.057787932190613,-0.2550203182598789,2.343338896339894,-0.3802124650161487,-0.9151882532873041,-0.0110904723791446,0.1332139028543368
43,-0.537,-0.9370000000000001,1.194,1.116,1.548,1.714,-0.7963012327463314,0.2684784479748635,0.3912851584496114,-3.090460506267376,-0.1924945352900954,2.458713323357206,-0.3308705664359056,-0.9384286274609352,-0.008191440616018527,0.09904180798431715
44,-0.41,-0.97,1.298,1.12,1.565,1.719,-0.787980569670008,0.1520173083359099,0.3715693787122087,-3.117640067407871,-0.1205878252184563,2.582299296444854,-0.2748011457463437,-0.9595368644992079,-0.005140955979777481,0.06121198032362177
45,-0.366,-0.974,1.322,1.126,1.568,1.725,-0.7852031065261553,0.1142511317648013,0.3649252117846399,-3.123917410796072,-0.09521478021414793,2.620682292970758,-0.2568121995441504,-0.9652486698169509,-0.0037249981175399,0.04825581800080355
46,-0.218,-0.968,1.367,1.155,1.571,1.749,-0.7763106987242222,-0.006225050914094307,0.3447415819904747,-3.138815478270872,-0.01656641408118496,2.745364265404548,-0.1968025446528266,-0.980407170801293,-0.0002689078874193182,0.008394375981834557
47,-0.221,-0.967,1.37,1.156,1.571,1.75,-0.7753679341118185,-0.004111315779746712,0.3428788712352092,-3.139690321157335,-0.01164371511006116,2.741376703836,-0.198766266631698,-0.9800291694389862,-0.0002250636898484375,0.005894713255373783
48,-0.371,-0.961,1.377,1.155,1.57,1.743,-0.7660585986584434,0.1112053459353648,0.3353922569709954,-3.140843004997935,0.0003371144315999984,2.598389025648157,0.2682749137312506,0.9633423076755827,-0.0004063037881729309,6.182236408808307e-05
49,-0.505,-0.931,1.343,1.17,1.57,1.743,-0.7570734667179715,0.2195957622859792,0.3280577778458808,3.140457329607194,0.01117441256723559,2.464378176089227,0.3321655071971089,0.9432043983460203,-0.001320492488896317,0.00545848594356061
50,-0.595,-0.894,1.292,1.193,1.571,1.75,-0.7508193738125817,0.2980922650707678,0.3226394879072969,3.137790545130741,0.01984378383534267,2.367353312535541,0.3774860685193752,0.9259601579299297,-0.001985383123197216,0.009905162998120659
51,-0.658,-0.873,1.237,1.217,1.572,1.747,-0.744996438941639,0.3560751939296159,0.3313073835487516,3.138618927022938,0.009834681549985598,2.307380498427189,0.4051043105020138,0.9142560401295704,-0.0006327145352731173,0.005098075284072677
52,-0.765,-0.8149999999999999,1.099,1.277,1.571,1.75,-0.7341477719501177,0.4636214357135369,0.3486528126834968,-3.140046853887566,-0.009675746894645027,2.197380504308902,-0.454754201107669,-0.8906035113292183,-0.001511730405677581,0.004660134565989461
53,-0.752,-0.834,1.095,1.299,1.571,1.75,-0.7365397258655423,0.4506967156153386,0.3691116126107568,-3.139868589392359,-0.01065973117171759,2.210378691793042,-0.4489546022401735,-0.8935382559646015,-0.001622655153559988,0.00514948981537581
54,-0.665,-0.923,1.06,1.42,1.571,1.749,-0.7511844814351265,0.367953867384762,0.4730522360851949,-3.139347385701877,-0.01361393391842553,2.298372291684546,-0.4092134511140286,-0.9124126024744199,-0.001761290647960212,0.006670242008814408
55,-0.628,-0.949,1.027,1.478,1.571,1.75,-0.756922888027869,0.3345717529455813,0.5159334255580006,-3.139155490559853,-0.01459566457992116,2.334369687217925,-0.3927232635079154,-0.9196269331131142,-0.001745502399902327,0.007189952296945188
