ESOGU-SRLAB/Model-Based-Digital-Twin-Functional-Mockup-Unit/Cobot_Ur10e/UR10e_FK/ur10e_FK_out.csv
"time","q1","q2","q3","q4","q5","q6","x","y","z","roll","pitch","yaw","qx","qy","qz","qw"
0,-0.6929999999999999,-0.833,0.951,1.149,1.515,1.739,-1.185,-0.291,0.06100000000000001,1.570796326794897,-0,0,0.7071067811865475,0,0,0.7071067811865476
0.5,-0.6929999999999999,-0.833,0.951,1.149,1.515,1.739,-0.8083451942641048,0.4365924737351684,0.419885571915271,-3.034373895143241,-0.2900649314732335,2.273257441461379,-0.4086153648931579,-0.8996637523874013,-0.01260582531590966,0.1532309021756283
1,-0.6929999999999999,-0.833,0.951,1.149,1.515,1.739,-0.8083451942641048,0.4365924737351684,0.419885571915271,-3.034373895143241,-0.2900649314732335,2.273257441461379,-0.4086153648931579,-0.8996637523874013,-0.01260582531590966,0.1532309021756283
1.5,-0.6929999999999999,-0.833,0.951,1.149,1.515,1.739,-0.8083451942641048,0.4365924737351684,0.419885571915271,-3.034373895143241,-0.2900649314732335,2.273257441461379,-0.4086153648931579,-0.8996637523874013,-0.01260582531590966,0.1532309021756283
2,-0.694,-0.8314999999999999,0.9484999999999999,1.1495,1.515,1.7395,-0.808539042099079,0.4379255154911552,0.4197948465976143,-3.034134226069068,-0.2905036754716874,2.271712518215479,-0.4092679130270178,-0.8993255416058491,-0.01270928861772537,0.1534660208798251
2.5,-0.695,-0.83,0.946,1.15,1.515,1.74,-0.8087298967563941,0.4392584348328367,0.4197032057160548,-3.033894031275697,-0.2909422525145136,2.270167418335493,-0.4099201580819141,-0.8989868018920959,-0.01281286946595537,0.1537010878229832
3,-0.7084999999999999,-0.8149999999999999,0.9125,1.1575,1.5115,1.7445,-0.8101949752273216,0.4559975435944384,0.4231264734879815,-3.027054878216418,-0.3006740090603416,2.251464321631987,-0.4172245906971693,-0.8946301029224967,-0.01329425471309599,0.1593232018699278
3.5,-0.722,-0.8,0.879,1.165,1.508,1.749,-0.8111432211595906,0.4726695697789353,0.4264875648129203,-3.020109127646265,-0.3103496377427141,2.23271860356478,-0.4244526325711692,-0.8901934663145955,-0.01382879887132698,0.1649373200824646
4,-0.724,-0.7975000000000001,0.8745000000000001,1.166,1.5075,1.75,-0.8112351514656483,0.4751315338967479,0.4264864094507315,-3.019106113979359,-0.3111222268704965,2.229627630836259,-0.4256979022726421,-0.8895000860678458,-0.0138086038454632,0.1654696810470307
4.5,-0.726,-0.795,0.87,1.167,1.507,1.751,-0.8113168104137901,0.4775925029138152,0.4264828628407398,-3.018101266103059,-0.3118931383104547,2.226536183652843,-0.4269416925214276,-0.8888048043836673,-0.01378897748094822,0.1660020330944164
5,-0.7215,-0.8005,0.882,1.164,1.508,1.749,-0.8109603959755273,0.4718952826912334,0.425390067995559,-3.020401653479579,-0.3088757406141066,2.233307733216815,-0.4243038966550473,-0.8903990114860864,-0.01358540932139524,0.1642292308985015
5.5,-0.717,-0.806,0.894,1.161,1.509,1.747,-0.8105419328389555,0.4661872335196121,0.4242878514583654,-3.022687390963071,-0.3058504110355292,2.240073897198762,-0.4216572965244694,-0.8919832582183688,-0.01338650885212732,0.162455509991414
6,-0.6925,-0.8315,0.9490000000000001,1.1495,1.515,1.7395,-0.8091125525625329,0.4366438036080824,0.419550571552063,-3.034225526078783,-0.2900113878689567,2.273238648187199,-0.408615364893158,-0.8996637523874011,-0.01252920829228603,0.1532371859341613
6.5,-0.668,-0.857,1.004,1.138,1.521,1.732,-0.8061489092364817,0.4069979579045014,0.4146284492671616,-3.045476550395755,-0.2740174121564154,2.306293285835828,-0.3953510622711648,-0.907095152110825,-0.0118360699061117,0.1439994098157291
7,-0.6095,-0.894,1.0915,1.127,1.5335,1.7235,-0.8047307866916481,0.344309965652229,0.4039995545192052,-3.066586836805883,-0.2377081911493647,2.375044735280831,-0.3669362943857307,-0.921917335924976,-0.009782376111483635,0.1238163426251832
7.5,-0.551,-0.931,1.179,1.116,1.546,1.715,-0.7972648609211839,0.2822750817823611,0.3932418727331288,-3.086945318522941,-0.2010592316411368,2.443448566043275,-0.3375955920671387,-0.9355349542005295,-0.008770061227360224,0.1035695501193263
8,-0.4995000000000001,-0.9470000000000001,1.226,1.1165,1.5535,1.7155,-0.7955141595542624,0.2335520005367181,0.3849083957882877,-3.098957689966492,-0.170952914015889,2.495255166889378,-0.314615960979361,-0.9451352314672257,-0.006967166229780466,0.08767924458589711
8.5,-0.448,-0.963,1.273,1.117,1.561,1.716,-0.7904282709579663,0.185549664381843,0.3767402794191165,-3.110956627491965,-0.1408557379688324,2.546933167395485,-0.2911770175300558,-0.9539558457330843,-0.00600463838519322,0.07175049248500333
9,-0.378,-0.969,1.3095,1.126,1.566,1.7245,-0.7884550783588855,0.1252715477447848,0.3664281674696284,-3.120829802028211,-0.1023281722014391,2.609076049115756,-0.2622527492862197,-0.9635874681775676,-0.003453551438200642,0.05206495602061087
9.5,-0.308,-0.975,1.346,1.135,1.571,1.733,-0.7816541006090565,0.06609522036188373,0.3564794557942167,-3.131315170011721,-0.06397751852628832,2.671053500412079,-0.2328229865951682,-0.9719795125257485,-0.002460775414106399,0.0322990514949841
10,-0.2685,-0.972,1.3555,1.1435,1.5715,1.74,-0.7800683514337658,0.03425032986728882,0.3511809376150488,-3.13490646691055,-0.04328898146369344,2.703728826521362,-0.2170644435084227,-0.9759115998790782,-0.001437988885926522,0.02185197413966667
10.5,-0.229,-0.969,1.365,1.152,1.572,1.747,-0.7771580629064438,0.002627205278587389,0.3459651949752176,-3.138780958803991,-0.02265428918451439,2.736343410268454,-0.2012122406682939,-0.9794811685731433,-0.0009024368644258453,0.01137805886520135
11,-0.2585,-0.9684999999999999,1.372,1.1525,1.571,1.7465,-0.7744802416744606,0.02482971876984447,0.3427820081153353,-3.139206593691622,-0.01460410522048304,2.707370050096695,-0.2153952401656314,-0.9764989238710555,-0.0004079266747560907,0.007387542790971524
11.5,-0.288,-0.968,1.379,1.153,1.57,1.746,-0.7711497025517999,0.04687089521811776,0.3396190458428647,-3.139623842614607,-0.006553474142756457,2.678385235142734,-0.2295342244774264,-0.9732945770901519,0.000205979821630466,0.003415197324005989
12,-0.3295,-0.9644999999999999,1.378,1.154,1.57,1.7445,-0.7692798180088694,0.07907666357907239,0.3375072995297316,-3.140238599819364,-0.003109091298226201,2.638388187922209,-0.2489546871210588,-0.9685136492518365,0.0002686963799907544,0.001674149217296719
12.5,-0.371,-0.961,1.377,1.155,1.57,1.743,-0.7660585986584434,0.1112053459353648,0.3353922569709954,-3.140843004997935,0.0003371144315999984,2.598389025648157,0.2682749137312506,0.9633423076755827,-0.0004063037881729309,6.182236408808307e-05
13,-0.4295,-0.9485,1.363,1.161,1.57,1.743,-0.7637694137685489,0.1583336379476833,0.3322911680715366,3.141571203839271,0.004770556908758713,2.539887056386909,0.2963339412678593,0.9550814130717447,-0.0006965972352839032,0.002281317564047378
13.5,-0.488,-0.9360000000000001,1.349,1.167,1.57,1.743,-0.7585231659745488,0.2055404729617522,0.3291151299963131,3.14080007287831,0.009203996549302545,2.481381668311828,0.3241376439823739,0.9459986535273491,-0.001116809420290689,0.004481965497071589
14,-0.5395,-0.916,1.322,1.179,1.5705,1.7465,-0.7561853011269316,0.2499203429256718,0.326026270124383,3.139401437934877,0.01403677404116898,2.426371496826637,0.3500209437362773,0.9367149415700519,-0.00143040365406899,0.006957810773977664
14.5,-0.591,-0.896,1.295,1.191,1.571,1.75,-0.7511223043679836,0.294493825791493,0.3227569115715382,3.137968857965473,0.01885980393656596,2.371356762993821,0.375635292061578,0.9267178235882685,-0.001863350093778918,0.009419698937012957
15,-0.621,-0.886,1.27,1.2025,1.5715,1.749,-0.7487836908003456,0.3218518921256673,0.3264070845240505,3.138116244103164,0.01533023128532791,2.342367857996034,0.3890370169912463,0.9211885939186096,-0.001380959222778799,0.007737363661655188
15.5,-0.651,-0.876,1.245,1.214,1.572,1.748,-0.7453490735871846,0.3492353232549467,0.3300594315791287,3.138256496993387,0.01180038019458567,2.313376640889164,0.4023569185816031,0.9154623509142218,-0.0008470053254775223,0.006072619706692281
16,-0.7070000000000001,-0.8465,1.174,1.2445,1.5715,1.749,-0.742232602323819,0.4053638418688615,0.3392614372287952,3.14068675844516,0.001059876983121148,2.256388923812265,0.4282917412760954,0.9036402483060045,0.0001823332226307703,0.0006728675564159898
16.5,-0.763,-0.8169999999999999,1.103,1.275,1.571,1.75,-0.7341956194570033,0.461312760053111,0.3483949418343408,-3.140046853887566,-0.009675746894645145,2.199380504308902,-0.4538633703676922,-0.891057820152815,-0.001507069516023153,0.004661643966076164
17,-0.7615000000000001,-0.821,1.099,1.282,1.571,1.75,-0.734597623626314,0.4599353090401096,0.3543459900300251,-3.139868589392359,-0.0106597311717175,2.200878691793042,-0.4531938282360779,-0.8913956494136721,-0.00164709683265901,0.005141724139807405
17.5,-0.76,-0.825,1.095,1.289,1.571,1.75,-0.7349668733700324,0.4585289159896624,0.3603000251472258,-3.139690321157335,-0.01164371511006129,2.202376703835999,-0.4525239215280981,-0.8917327526489112,-0.001786404385286111,0.005622015421519124
18,-0.734,-0.855,1.0895,1.324,1.571,1.749,-0.7402782568905287,0.433528741842574,0.3921772650788324,-3.139613322802152,-0.01213769234072054,2.229375715747294,-0.4404440190460464,-0.8977590190467429,-0.001784573834042562,0.005884309902336272
18.5,-0.708,-0.885,1.084,1.359,1.571,1.748,-0.7439833346595028,0.4078749229181317,0.4238057488313213,-3.139537309668013,-0.01263183462550315,2.256374695673013,-0.4282838568945789,-0.9036215975824142,-0.001776454390806333,0.006147399117230393
19,-0.6879999999999999,-0.903,1.0725,1.388,1.571,1.7485,-0.7477803765679979,0.3894532216828329,0.4472447918967697,-3.139442594089968,-0.013122930163666,2.275873518563762,-0.4194526682618444,-0.9077528580471868,-0.001776447025550489,0.006407185899334617
19.5,-0.668,-0.921,1.061,1.417,1.571,1.749,-0.7506581746343942,0.3706641204841563,0.4706118857115624,-3.139347385701877,-0.01361393391842546,2.295372291684546,-0.4105816091394621,-0.911797756063946,-0.001771294025769814,0.006667592569812295
20,-0.6535,-0.9245000000000001,1.028,1.426,1.5665,1.748,-0.7595544231049464,0.3618350848366577,0.4894203245470291,-3.130080256930684,-0.03989197377923828,2.310748045283341,-0.4033843497526164,-0.9147951517391258,-0.002783527748559733,0.02057057856554763
20.5,-0.639,-0.928,0.995,1.435,1.562,1.747,-0.7678093873977901,0.3524226336006066,0.5083959979299567,-3.120856212011659,-0.06618773258416667,2.326005154981037,-0.3960315810859136,-0.9175821062913945,-0.003608804686887963,0.03448248142421702
21,-0.65,-0.914,0.982,1.4035,1.5565,1.746,-0.7727592743686069,0.3667839931286526,0.4992930217333302,-3.110157489577776,-0.09528009269977611,2.315600532795077,-0.4001648563793184,-0.9150706686109409,-0.004731830942921384,0.04991361480370559
21.5,-0.661,-0.9,0.969,1.372,1.551,1.745,-0.7775051029633945,0.3813118331839553,0.4902177476978546,-3.099489860639785,-0.1243916634703503,2.305053188304393,-0.4041091889801112,-0.9123556078184755,-0.006042813789981747,0.0653183945417861
22,-0.6930000000000001,-0.8485,0.9205,1.271,1.5295,1.7475,-0.7953187558879518,0.4279779610319975,0.4587990332879188,-3.060310339372217,-0.2169427446309216,2.267757298424171,-0.4163290488269775,-0.9018525704016787,-0.009174897951133687,0.1150994596438041
22.5,-0.725,-0.797,0.872,1.17,1.508,1.75,-0.8107277147621195,0.475992270861609,0.4275618027345217,-3.019986966285932,-0.3092458936461641,2.228735991607761,-0.42628156226054,-0.8894090324654449,-0.01385836741270413,0.1644492271135659
23,-0.7005,-0.8235,0.9299999999999999,1.1555,1.514,1.742,-0.8095293430926074,0.4462683076777499,0.4220948175740919,-3.031576940388543,-0.2944937000593736,2.262397218437076,-0.4130339755324778,-0.8972094886880463,-0.01312962077843177,0.1557102486099925
23.5,-0.676,-0.85,0.988,1.141,1.52,1.734,-0.8067160210715715,0.4163713031654154,0.4164187028377516,-3.042882805200168,-0.2795772268079477,2.295954514405418,-0.3995668330848448,-0.9047613016223763,-0.01255222438854532,0.1469550089246053
24,-0.6335,-0.8805000000000001,1.0585,1.1305,1.529,1.726,-0.8052410920621358,0.3694836033833419,0.4083635097707982,-3.058924922276177,-0.2526225534552524,2.347899284362569,-0.3783042793312205,-0.916167387997372,-0.01084241382380632,0.1319304038962667
24.5,-0.591,-0.911,1.129,1.12,1.538,1.718,-0.8002802601313158,0.3228302277606612,0.4001644738134488,-3.074446427589674,-0.225429072910455,2.399620695117854,-0.3565124084825692,-0.9269033523198106,-0.009668703312087624,0.1168571531080473
25,-0.5665,-0.923,1.159,1.118,1.5425,1.716,-0.7988869881938006,0.2979885348864917,0.3960455804979917,-3.08177531834198,-0.2103891485183164,2.426650887900519,-0.344874796010441,-0.9322884164785403,-0.00886499371964462,0.1087248612923606
25.5,-0.542,-0.9350000000000001,1.189,1.116,1.547,1.714,-0.7965816992352041,0.2733032418296428,0.3919376863002573,-3.089027660524259,-0.1953201307694245,2.45363520147149,-0.3331003052476644,-0.9374750673688518,-0.008248604862457595,0.1005815352015611
26,-0.4665,-0.9535,1.249,1.119,1.5565,1.718,-0.795052342458864,0.203675708173685,0.3800505128637133,-3.104351935613511,-0.1524964162462116,2.526163130346262,-0.3005974701021174,-0.9505240529455691,-0.005374658564494458,0.07820676943494602
26.5,-0.391,-0.972,1.309,1.122,1.566,1.722,-0.7868683442753447,0.1355552640356294,0.3685550965303918,-3.119944015952596,-0.1097932090452628,2.59846768804554,-0.267245069284808,-0.9620046808759553,-0.004305314915314391,0.05575420324235354
27,-0.31,-0.9704999999999999,1.337,1.137,1.569,1.7345,-0.7849431553155113,0.06850910288925337,0.3570474564802597,-3.128836912437282,-0.06610253886749105,2.667527693588555,-0.234481237005402,-0.9715379421042025,-0.001563387589014503,0.03361744136001652
27.5,-0.229,-0.969,1.365,1.152,1.572,1.747,-0.7771580629064438,0.002627205278587389,0.3459651949752176,-3.138780958803991,-0.02265428918451439,2.736343410268454,-0.2012122406682939,-0.9794811685731433,-0.0009024368644258453,0.01137805886520135
28,-0.221,-0.9675,1.3665,1.1545,1.5715,1.749,-0.7766174206545854,-0.003770635805898362,0.3445087816786657,-3.139218900102724,-0.01714712436056437,2.74236254272052,-0.1982746437658868,-0.980108286366063,-0.0005367812682844723,0.008638547445038478
28.5,-0.213,-0.966,1.368,1.157,1.571,1.751,-0.7760222716397215,-0.01016006112345111,0.343056863323517,-3.139678677890426,-0.01164180695699414,2.748376637875872,-0.195334954099642,-0.9807188472793124,-0.0001985352909591025,0.005895666354688929
29,-0.266,-0.966,1.374,1.155,1.5705,1.748,-0.77372544631058,0.0304279583097101,0.340377903381433,-3.139926621981315,-0.007622001817990762,2.698383786240633,-0.2197903348923327,-0.9755393334639497,-2.499773472953204e-05,0.00390088807095262
29.5,-0.319,-0.966,1.38,1.153,1.57,1.745,-0.7692964038937826,0.07074027069388721,0.3377090299502863,-3.140150382530749,-0.003600846238624154,2.648387895243545,-0.2441088223840265,-0.9697459055244251,0.0002598162105567858,0.001921990747421084
30,-0.3905,-0.9544999999999999,1.3695,1.158,1.57,1.7435,-0.7667555560872413,0.1273608324859614,0.3338633448393046,-3.141186867105437,0.002307736673473298,2.578388571186668,0.2778949778509068,0.9606107477579766,-0.0005155555436518224,0.001052035924570612
30.5,-0.462,-0.9429999999999999,1.359,1.163,1.57,1.742,-0.7599946010868112,0.1839512397582988,0.3299559390167112,3.140979658966395,0.008219405224723593,2.508383194723936,0.3113380017414906,0.9502903057348918,-0.0009882574090037404,0.004000855557865256
31,-0.482,-0.9375,1.3515,1.1665,1.57,1.7425,-0.7588313789136339,0.2005088737234993,0.3291966089406279,3.140719236890033,0.009697038584627247,2.487880881895505,0.3210611567884596,0.9470459518636539,-0.001143110529366327,0.004732014226460624
31.5,-0.502,-0.9320000000000001,1.344,1.17,1.57,1.743,-0.7572975988911623,0.2170868445106771,0.3284235125602433,3.140457329607194,0.0111744125672357,2.467378176089227,0.3307503274440167,0.9437015853152237,-0.001312303277497613,0.005460460540755695
32,-0.5545,-0.911,1.314,1.1835,1.5705,1.7465,-0.7548416580141806,0.2627767294313145,0.3259137433816397,3.139139179119695,0.01551367462698326,2.411367622033716,0.3570344972844687,0.9340581864787976,-0.001623742639173815,0.007683454991621323
32.5,-0.607,-0.89,1.284,1.197,1.571,1.75,-0.7494807290768898,0.3086724295634201,0.3232109177234952,3.137790545130741,0.0198437838353428,2.35535331253554,0.3830350014036,0.9236785878754464,-0.002044778007811727,0.009893072478456106
33,-0.6365000000000001,-0.88,1.257,1.2085,1.5715,1.7485,-0.747279000346172,0.3360603422764268,0.3276680186598487,3.13830071898886,0.01434771885089591,2.327370537466012,0.3959365915539707,0.9182483559284824,-0.001329119525324642,0.007239181207203748
33.5,-0.666,-0.87,1.23,1.22,1.572,1.747,-0.7439588508203901,0.3634654453034947,0.3321422422680949,3.138794235510881,0.008850166634471506,2.299382136209807,0.4087593503363881,0.9126304041450911,-0.0005318729899589159,0.004610428793964833
34,-0.7170000000000001,-0.842,1.1625,1.2495,1.5715,1.749,-0.7408333451010004,0.4151120906493239,0.340984603848049,3.141041282435369,-0.0009084504240106117,2.246388950654452,-0.4328049313078942,-0.9014874425706305,-0.0004451179811165637,0.0002901603282914337
34.5,-0.768,-0.8139999999999999,1.095,1.279,1.571,1.751,-0.7335034508255603,0.4665459859899854,0.3497613431911763,-3.139857930137261,-0.01065800177861052,2.193378636480118,-0.4565333675714819,-0.8896899089226179,-0.001661230328140548,0.005137175187094534
35,-0.757,-0.828,1.0945,1.293,1.571,1.75,-0.7356985535556433,0.4557167462687575,0.3635355837293015,-3.139779455763906,-0.01115172318518535,2.205377719745247,-0.4511864422906613,-0.8924118345878985,-0.001706746628088454,0.005385053064231039
35.5,-0.746,-0.842,1.094,1.307,1.571,1.749,-0.7375996609950404,0.4447621248094718,0.3772530281699705,-3.139701966327088,-0.01164561161892996,2.217376769840432,-0.4458232614073801,-0.895101570376267,-0.001749823804710258,0.005633508203600765
36,-0.7050000000000001,-0.883,1.076,1.365,1.571,1.749,-0.7464346900806237,0.4066886324917113,0.4263946714629953,-3.139524678218272,-0.01262977296714523,2.25837461802449,-0.4273800213056895,-0.9040494295571671,-0.001764156047860816,0.006150939728849323
36.5,-0.664,-0.924,1.058,1.423,1.571,1.749,-0.7513495111496032,0.3670439979111551,0.475122164947114,-3.139347385701877,-0.0136139339184254,2.299372291684546,-0.4087571936801198,-0.9126170951398785,-0.001757955306933428,0.006671121820321394
37,-0.6415,-0.9385,1.037,1.4565,1.571,1.75,-0.7557803945636923,0.3473309609172673,0.5003584308132857,-3.138977203911888,-0.01557964685053579,2.320866997392083,-0.3989202726317311,-0.9169515941564698,-0.001908538364319545,0.007664694295674419
37.5,-0.619,-0.953,1.016,1.49,1.571,1.751,-0.7590606043627649,0.3271456250712766,0.5255620902480864,-3.138603066026135,-0.01754462906553914,2.34236094172469,-0.3890370094878002,-0.9211791463431803,-0.002035982264226293,0.008662584340636855
38,-0.641,-0.9245,0.991,1.4275,1.5605,1.748,-0.7694018960041267,0.3554537911112042,0.5065045582632579,-3.117896763055205,-0.07377672789389818,2.322909998141919,-0.3973056385254961,-0.9168686437552862,-0.003815942161633808,0.03854294072342076
38.5,-0.663,-0.896,0.966,1.365,1.55,1.745,-0.778916204430857,0.3844163875366162,0.4875007274689813,-3.097449197935915,-0.1301262297087953,2.302926601914487,-0.4048803160502256,-0.911790396254196,-0.006350240611976441,0.06833650135802789
39,-0.6845,-0.8634999999999999,0.9355,1.299,1.5365,1.7455,-0.7900047900017095,0.4149764075636114,0.4673845685298392,-3.072696182455454,-0.1907619680516963,2.279232898419877,-0.4128166022051788,-0.9051783150135674,-0.008632889184130618,0.1007975406312316
39.5,-0.706,-0.831,0.905,1.233,1.523,1.746,-0.8000938454171447,0.4461542512652735,0.447362702669194,-3.047636641383928,-0.2513539661872205,2.254851956510627,-0.4198162045748585,-0.8977230203926554,-0.01162700009710143,0.1330884889920635
40,-0.6899999999999999,-0.8414999999999999,0.9485,1.187,1.5215,1.7395,-0.8036901379820198,0.4302301922719251,0.4317893601806289,-3.045495826838002,-0.2645105928361475,2.2769631508949,-0.4090845050789991,-0.9016837074646286,-0.01195609116222102,0.1395471650777362
40.5,-0.674,-0.852,0.992,1.141,1.52,1.733,-0.8064743184130035,0.4139000773077615,0.4162568735424341,-3.043517541695265,-0.2777039777527166,2.2990858787043,-0.3982910138958191,-0.9054817947398373,-0.01222482282629238,0.1460052785053666
41,-0.6565000000000001,-0.866,1.024,1.1355,1.524,1.729,-0.8055120470270102,0.3940872073963833,0.4126902814171701,-3.05070708219845,-0.2663887395947779,2.321234487992848,-0.389301149351777,-0.9103942559352405,-0.01161285917816955,0.1396139512198305
41.5,-0.639,-0.88,1.056,1.13,1.528,1.725,-0.8039060029093646,0.3742881480081608,0.4090856730047594,-3.057787932190613,-0.2550203182598789,2.343338896339894,-0.3802124650161487,-0.9151882532873041,-0.0110904723791446,0.1332139028543368
42,-0.5880000000000001,-0.9085000000000001,1.125,1.123,1.538,1.7195,-0.8022290640852777,0.321083878134328,0.4001962755846915,-3.074337001675219,-0.2238455766091076,2.401137307975142,-0.3558597853853632,-0.9272470649382576,-0.009242066804905391,0.1161519604227309
42.5,-0.537,-0.9370000000000001,1.194,1.116,1.548,1.714,-0.7963012327463314,0.2684784479748635,0.3912851584496114,-3.090460506267376,-0.1924945352900954,2.458713323357206,-0.3308705664359056,-0.9384286274609352,-0.008191440616018527,0.09904180798431715
43,-0.4735,-0.9535,1.246,1.118,1.5565,1.7165,-0.7945283024056702,0.2097080185985888,0.3812926505253748,-3.103987567161054,-0.1565086824395701,2.520588155630588,-0.3031485194020843,-0.9495475500179787,-0.006033403732717916,0.08015000610465597
43.5,-0.41,-0.97,1.298,1.12,1.565,1.719,-0.787980569670008,0.1520173083359099,0.3715693787122087,-3.117640067407871,-0.1205878252184563,2.582299296444854,-0.2748011457463437,-0.9595368644992079,-0.005140955979777481,0.06121198032362177
44,-0.388,-0.972,1.31,1.123,1.5665,1.722,-0.7868341963602423,0.1330785281147304,0.3682277566665206,-3.120742986886317,-0.1078915987542073,2.601499193487885,-0.2658321909496194,-0.9624540911454378,-0.004351485585889282,0.05473968638501832
44.5,-0.366,-0.974,1.322,1.126,1.568,1.725,-0.7852031065261553,0.1142511317648013,0.3649252117846399,-3.123917410796072,-0.09521478021414793,2.620682292970758,-0.2568121995441504,-0.9652486698169509,-0.0037249981175399,0.04825581800080355
45,-0.292,-0.971,1.3445,1.1405,1.5695,1.737,-0.7831543475075267,0.05356073799796432,0.3546688048497067,-3.130908113514274,-0.05579839154494338,2.683127633314531,-0.2269933811412565,-0.9734820730564872,-0.001138153690874992,0.02837891756005493
45.5,-0.218,-0.968,1.367,1.155,1.571,1.749,-0.7763106987242222,-0.006225050914094307,0.3447415819904747,-3.138815478270872,-0.01656641408118496,2.745364265404548,-0.1968025446528266,-0.980407170801293,-0.0002689078874193182,0.008394375981834557
46,-0.2195,-0.9675,1.3685,1.1555,1.571,1.7495,-0.7758407384435021,-0.00516731216421957,0.3438094722149396,-3.139251684519862,-0.01410484551534035,2.74337101468574,-0.1977846502699553,-0.9802194276682493,-0.0002476108668621959,0.007144538346157021
46.5,-0.221,-0.967,1.37,1.156,1.571,1.75,-0.7753679341118185,-0.004111315779746712,0.3428788712352092,-3.139690321157335,-0.01164371511006116,2.741376703836,-0.198766266631698,-0.9800291694389862,-0.0002250636898484375,0.005894713255373783
47,-0.296,-0.964,1.3735,1.1555,1.5705,1.7465,-0.7728770256400923,0.05374832318728573,0.3391308860109465,-3.140287674611409,-0.005655286104184137,2.669886149165472,-0.2336699228249646,-0.9723116505973739,-2.631902638384554e-05,0.00290182475250171
47.5,-0.371,-0.961,1.377,1.155,1.57,1.743,-0.7660585986584434,0.1112053459353648,0.3353922569709954,-3.140843004997935,0.0003371144315999984,2.598389025648157,0.2682749137312506,0.9633423076755827,-0.0004063037881729309,6.182236408808307e-05
48,-0.438,-0.946,1.36,1.1625,1.57,1.743,-0.7635215255005675,0.1653470067048992,0.3317787311797022,3.141399845289742,0.005755766055728235,2.531386154503244,0.300390147895933,0.9538120714090361,-0.0007725394222847802,0.002773925792856174
48.5,-0.505,-0.931,1.343,1.17,1.57,1.743,-0.7570734667179715,0.2195957622859792,0.3280577778458808,3.140457329607194,0.01117441256723559,2.464378176089227,0.3321655071971089,0.9432043983460203,-0.001320492488896317,0.00545848594356061
49,-0.55,-0.9125000000000001,1.3175,1.1815,1.5705,1.7465,-0.7550133914021395,0.2587622776997729,0.3254249080731056,3.139139179119695,0.01551367462698305,2.415867622033716,0.3549319643949521,0.934859149086093,-0.001606450769932392,0.007687088960739568
49.5,-0.595,-0.894,1.292,1.193,1.571,1.75,-0.7508193738125817,0.2980922650707678,0.3226394879072969,3.137790545130741,0.01984378383534267,2.367353312535541,0.3774860685193752,0.9259601579299297,-0.001985383123197216,0.009905162998120659
50,-0.6265000000000001,-0.8835,1.2645,1.205,1.5715,1.7485,-0.7485282496393316,0.3270698271037691,0.3269673669918184,3.138212315243823,0.01483984326847447,2.337369247366867,0.3913396072515951,0.9202148668734339,-0.001348536152531288,0.007489461363872957
50.5,-0.658,-0.873,1.237,1.217,1.572,1.747,-0.744996438941639,0.3560751939296159,0.3313073835487516,3.138618927022938,0.009834681549985598,2.307380498427189,0.4051043105020138,0.9142560401295704,-0.0006327145352731173,0.005098075284072677
51,-0.7115,-0.844,1.168,1.247,1.5715,1.7485,-0.7418431000128621,0.4099431032733501,0.3400211894168707,3.140864058401181,7.607758780155275e-05,2.252389024329498,0.430098398462699,0.9027819412682891,0.0003125208769448188,0.0001910245593547606
51.5,-0.765,-0.8149999999999999,1.099,1.277,1.571,1.75,-0.7341477719501177,0.4636214357135369,0.3486528126834968,-3.140046853887566,-0.009675746894645027,2.197380504308902,-0.454754201107669,-0.8906035113292183,-0.001511730405677581,0.004660134565989461
52,-0.7585,-0.8245,1.097,1.288,1.571,1.75,-0.7354102824493655,0.4571951553277903,0.3588923274078258,-3.139957722085857,-0.01016773907356782,2.203879619980555,-0.4518567983921249,-0.8920756246106345,-0.001567979752768957,0.004904606188037121
52.5,-0.752,-0.834,1.095,1.299,1.571,1.75,-0.7365397258655423,0.4506967156153386,0.3691116126107568,-3.139868589392359,-0.01065973117171759,2.210378691793042,-0.4489546022401735,-0.8935382559646015,-0.001622655153559988,0.00514948981537581
53,-0.7085,-0.8785000000000001,1.0775,1.3595,1.571,1.7495,-0.7460696169302363,0.4102094871517544,0.4213316640438448,-3.139607253917566,-0.01213670115873405,2.254375679899661,-0.4291879143039956,-0.9031942894021143,-0.001707929165566849,0.005907011491548672
53.5,-0.665,-0.923,1.06,1.42,1.571,1.749,-0.7511844814351265,0.367953867384762,0.4730522360851949,-3.139347385701877,-0.01361393391842553,2.298372291684546,-0.4092134511140286,-0.9124126024744199,-0.001761290647960212,0.006670242008814408
54,-0.6465000000000001,-0.9359999999999999,1.0435,1.449,1.571,1.7495,-0.7544554274975601,0.3514233290808703,0.4945078207630836,-3.139251684519862,-0.01410484551534069,2.31637101468574,-0.4009845947824893,-0.9160569027128183,-0.001755786044113078,0.006929859644206122
54.5,-0.628,-0.949,1.027,1.478,1.571,1.75,-0.756922888027869,0.3345717529455813,0.5159334255580006,-3.139155490559853,-0.01459566457992116,2.334369687217925,-0.3927232635079154,-0.9196269331131142,-0.001745502399902327,0.007189952296945188
55,-0.628,-0.949,1.027,1.478,1.571,1.75,-0.756922888027869,0.3345717529455813,0.5159334255580006,-3.139155490559853,-0.01459566457992116,2.334369687217925,-0.3927232635079154,-0.9196269331131142,-0.001745502399902327,0.007189952296945188
55.5,-0.628,-0.949,1.027,1.478,1.571,1.75,-0.756922888027869,0.3345717529455813,0.5159334255580006,-3.139155490559853,-0.01459566457992116,2.334369687217925,-0.3927232635079154,-0.9196269331131142,-0.001745502399902327,0.007189952296945188
56,-0.628,-0.949,1.027,1.478,1.571,1.75,-0.756922888027869,0.3345717529455813,0.5159334255580006,-3.139155490559853,-0.01459566457992116,2.334369687217925,-0.3927232635079154,-0.9196269331131142,-0.001745502399902327,0.007189952296945188
56.5,-0.628,-0.949,1.027,1.478,1.571,1.75,-0.756922888027869,0.3345717529455813,0.5159334255580006,-3.139155490559853,-0.01459566457992116,2.334369687217925,-0.3927232635079154,-0.9196269331131142,-0.001745502399902327,0.007189952296945188
57,-0.628,-0.949,1.027,1.478,1.571,1.75,-0.756922888027869,0.3345717529455813,0.5159334255580006,-3.139155490559853,-0.01459566457992116,2.334369687217925,-0.3927232635079154,-0.9196269331131142,-0.001745502399902327,0.007189952296945188
57.5,-0.628,-0.949,1.027,1.478,1.571,1.75,-0.756922888027869,0.3345717529455813,0.5159334255580006,-3.139155490559853,-0.01459566457992116,2.334369687217925,-0.3927232635079154,-0.9196269331131142,-0.001745502399902327,0.007189952296945188
58,-0.628,-0.949,1.027,1.478,1.571,1.75,-0.756922888027869,0.3345717529455813,0.5159334255580006,-3.139155490559853,-0.01459566457992116,2.334369687217925,-0.3927232635079154,-0.9196269331131142,-0.001745502399902327,0.007189952296945188
